; generated by Slic3r 1.3.0 on 2023-03-14 at 18:41:22

; external perimeters extrusion width = 1.10mm (14.89mm^3/s)
; perimeters extrusion width = 1.40mm (38.78mm^3/s)
; infill extrusion width = 1.25mm (45.71mm^3/s)
; solid infill extrusion width = 1.40mm (12.93mm^3/s)
; top infill extrusion width = 1.40mm (9.70mm^3/s)

M107
M104 S205 ; set temperature
G28 ; home all axes
G1 Z5 F5000 ; lift nozzle

; Filament gcode

M109 S205 ; set temperature and wait for it to be reached
G21 ; set units to millimeters
G90 ; use absolute coordinates
M82 ; use absolute distances for extrusion
G92 E0
G1 Z0.500 F7800.000
G1 X53.607 Y123.607 F7800.000
G1 F1800
G1 X86.393 Y123.607 E2.07025
G1 X86.393 Y156.393 E4.14050
G1 X53.607 Y156.393 E6.21075
G1 X53.607 Y123.757 E8.27153
G1 X54.500 Y124.500 F7800.000
G1 F1800
G1 X85.500 Y124.500 E10.22905
G1 X85.500 Y155.500 E12.18656
G1 X54.500 Y155.500 E14.14407
G1 X54.500 Y124.650 E16.09211
G1 X54.241 Y123.534 F7800.000
G92 E0
G1 X153.607 Y113.607 F7800.000
G1 F1800
G1 X186.393 Y113.607 E2.07025
G1 X186.393 Y146.393 E4.14050
G1 X153.607 Y146.393 E6.21076
G1 X153.607 Y113.757 E8.27154
G1 X154.500 Y114.500 F7800.000
G1 F1800
G1 X185.500 Y114.500 E10.22905
G1 X185.500 Y145.500 E12.18656
G1 X154.500 Y145.500 E14.14407
G1 X154.500 Y114.650 E16.09211
G1 X154.241 Y113.534 F7800.000
G92 E0
G1 X66.393 Y56.393 F7800.000
G1 F1800
G1 X33.607 Y56.393 E2.07025
G1 X33.607 Y23.607 E4.14050
G1 X66.393 Y23.607 E6.21075
G1 X66.393 Y56.243 E8.27153
G1 X65.500 Y55.500 F7800.000
G1 F1800
G1 X34.500 Y55.500 E10.22905
G1 X34.500 Y24.500 E12.18656
G1 X65.500 Y24.500 E14.14407
G1 X65.500 Y55.350 E16.09211
G1 X65.759 Y56.466 F7800.000
G92 E0
G1 X66.000 Y56.000 F7800.000
G1 X66.000 Y90.000 F7800.000
G1 X54.000 Y90.000 F7800.000
G1 X37.100 Y92.100 F7800.000
G1 X34.000 Y89.000 F7800.000
G1 X17.500 Y56.000 F7800.000
G1 X17.500 Y24.000 F7800.000
G1 X18.038 Y18.038 F7800.000
G1 X1.000 Y1.000 F7800.000
G1 X1.393 Y1.393 F7800.000
G1 F1800
G1 X198.607 Y1.393 E12.45322
G1 X198.607 Y198.607 E24.90645
G1 X1.393 Y198.607 E37.35967
G1 X1.393 Y1.543 E49.80342
G1 X0.500 Y0.500 F7800.000
G1 F1800
G1 X199.500 Y0.500 E62.36938
G1 X199.500 Y199.500 E74.93535
G1 X0.500 Y199.500 E87.50131
G1 X0.500 Y0.650 E100.05780
G1 X1.466 Y0.759 F7800.000
G92 E0
G1 X1.794 Y2.696 F7800.000
G1 F1800
G1 X2.696 Y2.696 E0.05692
G1 X2.696 Y1.794 E0.11384
G1 X3.589 Y1.794 F7800.000
G1 F1800
G1 X3.589 Y3.589 E0.22713
G1 X1.794 Y3.589 E0.34042
G1 X1.794 Y4.481 F7800.000
G1 F1800
G1 X4.481 Y4.481 E0.51008
G1 X4.481 Y1.794 E0.67974
G1 X5.374 Y1.794 F7800.000
G1 F1800
G1 X5.374 Y5.374 E0.90577
G1 X1.794 Y5.374 E1.13180
G1 X1.794 Y6.267 F7800.000
G1 F1800
G1 X6.267 Y6.267 E1.41420
G1 X6.267 Y1.794 E1.69660
G1 X7.159 Y1.794 F7800.000
G1 F1800
G1 X7.159 Y7.159 E2.03537
G1 X1.794 Y7.159 E2.37414
G1 X1.794 Y8.052 F7800.000
G1 F1800
G1 X8.052 Y8.052 E2.76928
G1 X8.052 Y1.794 E3.16442
G1 X8.945 Y1.794 F7800.000
G1 F1800
G1 X8.945 Y8.945 E3.61593
G1 X1.794 Y8.945 E4.06744
G1 X1.794 Y9.837 F7800.000
G1 F1800
G1 X9.837 Y9.837 E4.57532
G1 X9.837 Y1.794 E5.08320
G1 X10.730 Y1.794 F7800.000
G1 F1800
G1 X10.730 Y10.730 E5.64745
G1 X1.794 Y10.730 E6.21170
G1 X1.794 Y11.623 F7800.000
G1 F1800
G1 X11.623 Y11.623 E6.83232
G1 X11.623 Y1.794 E7.45294
G1 X12.515 Y1.794 F7800.000
G1 F1800
G1 X12.515 Y12.515 E8.12993
G1 X1.794 Y12.515 E8.80692
G1 X1.794 Y13.408 F7800.000
G1 F1800
G1 X13.408 Y13.408 E9.54028
G1 X13.408 Y1.794 E10.27364
G1 X14.301 Y1.794 F7800.000
G1 F1800
G1 X14.301 Y14.301 E11.06337
G1 X1.794 Y14.301 E11.85310
G1 X1.794 Y15.194 F7800.000
G1 F1800
G1 X15.194 Y15.194 E12.69920
G1 X15.194 Y1.794 E13.54530
G1 X16.086 Y1.794 F7800.000
G1 F1800
G1 X16.086 Y16.086 E14.44777
G1 X1.794 Y16.086 E15.35024
G1 X1.794 Y16.979 F7800.000
G1 F1800
G1 X16.979 Y16.979 E16.30908
G1 X16.979 Y1.794 E17.26792
G1 X17.872 Y1.794 F7800.000
G1 F1800
G1 X17.872 Y17.872 E18.28313
G1 X1.794 Y17.872 E19.29834
G1 X1.794 Y18.764 F7800.000
G1 F1800
G1 X18.764 Y18.764 E20.36992
G1 X18.764 Y1.794 E21.44150
G1 X19.657 Y1.794 F7800.000
G1 F1800
G1 X19.657 Y19.657 E22.56945
G1 X1.794 Y19.657 E23.69740
G1 X1.794 Y20.550 F7800.000
G1 F1800
G1 X20.550 Y20.550 E24.88172
G1 X20.550 Y1.794 E26.06604
G1 X21.442 Y1.794 F7800.000
G1 F1800
G1 X21.442 Y21.442 E27.30673
G1 X1.794 Y21.442 E28.54742
G1 X1.794 Y22.335 F7800.000
G1 F1800
G1 X22.335 Y22.335 E29.84448
G1 X22.335 Y1.794 E31.14154
G1 X23.228 Y1.794 F7800.000
G1 F1800
G1 X23.228 Y23.228 E32.49497
G1 X1.794 Y23.228 E33.84840
G1 X1.794 Y24.121 F7800.000
G1 F1800
G1 X24.121 Y24.121 E35.25820
G1 X24.121 Y1.794 E36.66800
G1 X25.013 Y1.794 F7800.000
G1 F1800
G1 X25.013 Y25.013 E38.13417
G1 X1.794 Y25.013 E39.60034
G1 X1.794 Y25.906 F7800.000
G1 F1800
G1 X25.906 Y25.906 E41.12288
G1 X25.906 Y1.794 E42.64541
G1 X26.799 Y1.794 F7800.000
G1 F1800
G1 X26.799 Y26.799 E44.22432
G1 X1.794 Y26.799 E45.80323
G1 X1.794 Y27.691 F7800.000
G1 F1800
G1 X27.691 Y27.691 E47.43851
G1 X27.691 Y1.794 E49.07379
G1 X28.584 Y1.794 F7800.000
G1 F1800
G1 X28.584 Y28.584 E50.76544
G1 X1.794 Y28.584 E52.45709
G1 X1.794 Y29.477 F7800.000
G1 F1800
G1 X29.477 Y29.477 E54.20511
G1 X29.477 Y1.794 E55.95313
G1 X30.369 Y1.794 F7800.000
G1 F1800
G1 X30.369 Y30.369 E57.75752
G1 X1.794 Y30.369 E59.56191
G1 X1.794 Y31.262 F7800.000
G1 F1800
G1 X31.262 Y31.262 E61.42267
G1 X31.262 Y1.794 E63.28343
G1 X32.155 Y1.794 F7800.000
G1 F1800
G1 X32.155 Y32.155 E65.20056
G1 X1.794 Y32.155 E67.11768
G1 X1.794 Y33.048 F7800.000
G1 F1800
G1 X33.206 Y33.048 E69.10116
G1 X33.206 Y33.940 F7800.000
G1 F1800
G1 X1.794 Y33.940 E71.08464
G1 X1.794 Y34.833 F7800.000
G1 F1800
G1 X33.206 Y34.833 E73.06812
G1 X33.206 Y35.726 F7800.000
G1 F1800
G1 X1.794 Y35.726 E75.05160
G1 X1.794 Y36.618 F7800.000
G1 F1800
G1 X33.206 Y36.618 E77.03508
G1 X33.206 Y37.511 F7800.000
G1 F1800
G1 X1.794 Y37.511 E79.01855
G1 X1.794 Y38.404 F7800.000
G1 F1800
G1 X33.206 Y38.404 E81.00203
G1 X33.206 Y39.296 F7800.000
G1 F1800
G1 X1.794 Y39.296 E82.98551
G1 X1.794 Y40.189 F7800.000
G1 F1800
G1 X33.206 Y40.189 E84.96899
G1 X33.206 Y41.082 F7800.000
G1 F1800
G1 X1.794 Y41.082 E86.95247
G1 X1.794 Y41.975 F7800.000
G1 F1800
G1 X33.206 Y41.975 E88.93594
G1 X33.206 Y42.867 F7800.000
G1 F1800
G1 X1.794 Y42.867 E90.91942
G1 X1.794 Y43.760 F7800.000
G1 F1800
G1 X33.206 Y43.760 E92.90290
G1 X33.206 Y44.653 F7800.000
G1 F1800
G1 X1.794 Y44.653 E94.88638
G1 X1.794 Y45.545 F7800.000
G1 F1800
G1 X33.206 Y45.545 E96.86986
G1 X33.206 Y46.438 F7800.000
G1 F1800
G1 X1.794 Y46.438 E98.85334
G1 X1.794 Y47.331 F7800.000
G1 F1800
G1 X33.206 Y47.331 E100.83681
G1 X33.206 Y48.223 F7800.000
G1 F1800
G1 X1.794 Y48.223 E102.82029
G1 X1.794 Y49.116 F7800.000
G1 F1800
G1 X33.206 Y49.116 E104.80377
G1 X33.206 Y50.009 F7800.000
G1 F1800
G1 X1.794 Y50.009 E106.78725
G1 X1.794 Y50.902 F7800.000
G1 F1800
G1 X33.206 Y50.902 E108.77073
G1 X33.206 Y51.794 F7800.000
G1 F1800
G1 X1.794 Y51.794 E110.75420
G1 X1.794 Y52.687 F7800.000
G1 F1800
G1 X33.206 Y52.687 E112.73768
G1 X33.206 Y53.580 F7800.000
G1 F1800
G1 X1.794 Y53.580 E114.72116
G1 X1.794 Y54.472 F7800.000
G1 F1800
G1 X33.206 Y54.472 E116.70464
G1 X33.206 Y55.365 F7800.000
G1 F1800
G1 X1.794 Y55.365 E118.68812
G1 X1.794 Y56.258 F7800.000
G1 F1800
G1 X33.206 Y56.258 E120.67160
G1 X33.206 Y57.150 F7800.000
G1 F1800
G1 X1.794 Y57.150 E122.65507
G1 X1.794 Y58.043 F7800.000
G1 F1800
G1 X58.043 Y58.043 E126.20693
G1 X58.043 Y56.794 E126.28579
G1 X58.936 Y56.794 F7800.000
G1 F1800
G1 X58.936 Y58.936 E126.42101
G1 X1.794 Y58.936 E130.02924
G1 X1.938 Y60.012 F7800.000
G1 F1800
G1 X41.927 Y100.000 E133.60024
G1 X1.938 Y139.988 E137.17125
G1 X1.794 Y141.064 F7800.000
G1 F1800
G1 X53.206 Y141.064 E140.41764
G1 X53.206 Y141.957 F7800.000
G1 F1800
G1 X1.794 Y141.957 E143.66403
G1 X1.794 Y142.850 F7800.000
G1 F1800
G1 X53.206 Y142.850 E146.91042
G1 X53.206 Y143.742 F7800.000
G1 F1800
G1 X1.794 Y143.742 E150.15681
G1 X1.794 Y144.635 F7800.000
G1 F1800
G1 X53.206 Y144.635 E153.40320
G1 X53.206 Y145.528 F7800.000
G1 F1800
G1 X1.794 Y145.528 E156.64959
G1 X1.794 Y146.420 F7800.000
G1 F1800
G1 X53.206 Y146.420 E159.89598
G92 E0
G1 X53.206 Y140.171 F7800.000
G1 F1800
G1 X3.018 Y140.171 E3.16915
G1 X43.189 Y100.000 E6.75652
G1 X3.018 Y59.829 E10.34388
G1 X59.829 Y59.829 E13.93124
G1 X59.829 Y56.794 E14.12283
G1 X60.721 Y56.794 F7800.000
G1 F1800
G1 X60.721 Y60.721 E14.37080
G1 X5.173 Y60.721 E17.87844
G1 X44.451 Y100.000 E21.38608
G1 X5.173 Y139.279 E24.89373
G1 X53.206 Y139.279 E27.92679
G1 X53.206 Y138.386 F7800.000
G1 F1800
G1 X7.328 Y138.386 E30.82377
G1 X45.714 Y100.000 E34.25169
G1 X7.328 Y61.614 E37.67961
G1 X61.614 Y61.614 E41.10754
G1 X61.614 Y56.794 E41.41187
G1 X62.507 Y56.794 F7800.000
G1 F1800
G1 X62.507 Y62.507 E41.77258
G1 X9.483 Y62.507 E45.12078
G1 X46.976 Y100.000 E48.46899
G1 X9.483 Y137.493 E51.81719
G1 X53.206 Y137.493 E54.57808
G1 X53.206 Y136.601 F7800.000
G1 F1800
G1 X11.638 Y136.601 E57.20287
G1 X48.239 Y100.000 E60.47136
G1 X11.638 Y63.399 E63.73984
G1 X63.399 Y63.399 E67.00833
G1 X63.399 Y56.794 E67.42540
G1 X64.292 Y56.794 F7800.000
G1 F1800
G1 X64.292 Y64.292 E67.89885
G1 X13.793 Y64.292 E71.08761
G1 X49.501 Y100.000 E74.27638
G1 X13.793 Y135.708 E77.46515
G1 X53.206 Y135.708 E79.95385
G1 X53.206 Y134.815 F7800.000
G1 F1800
G1 X15.949 Y134.815 E82.30647
G1 X50.764 Y100.000 E85.41552
G1 X15.949 Y65.185 E88.52457
G1 X65.185 Y65.185 E91.63362
G1 X65.185 Y56.794 E92.16343
G1 X66.077 Y56.794 F7800.000
G1 F1800
G1 X66.077 Y66.077 E92.74961
G1 X18.104 Y66.077 E95.77894
G1 X52.026 Y100.000 E98.80827
G1 X18.104 Y133.923 E101.83760
G1 X53.206 Y133.923 E104.05413
G1 X53.206 Y133.030 F7800.000
G1 F1800
G1 X20.259 Y133.030 E106.13457
G1 X53.289 Y100.000 E109.08418
G1 X20.259 Y66.970 E112.03378
G1 X66.970 Y66.970 E114.98339
G1 X66.970 Y56.794 E115.62595
G92 E0
G1 X66.970 Y23.206 F7800.000
G1 F1800
G1 X66.970 Y20.259 E0.18607
G1 X100.000 Y53.289 E3.13568
G1 X133.030 Y20.259 E6.08529
G1 X133.030 Y66.970 E9.03490
G1 X179.741 Y66.970 E11.98451
G1 X146.711 Y100.000 E14.93412
G1 X159.773 Y113.062 E16.10056
G1 X158.511 Y113.062 F7800.000
G1 F1800
G1 X145.449 Y100.000 E17.26699
G1 X177.586 Y67.863 E20.13688
G1 X132.137 Y67.863 E23.00677
G1 X132.137 Y22.414 E25.87666
G1 X100.000 Y54.551 E28.74655
G1 X67.863 Y22.414 E31.61644
G1 X67.863 Y67.863 E34.48633
G1 X22.414 Y67.863 E37.35622
G1 X54.551 Y100.000 E40.22611
G1 X22.414 Y132.137 E43.09600
G1 X53.206 Y132.137 E45.04035
G1 X53.206 Y131.244 F7800.000
G1 F1800
G1 X24.569 Y131.244 E46.84862
G1 X55.814 Y100.000 E49.63879
G1 X24.569 Y68.756 E52.42896
G1 X68.756 Y68.756 E55.21913
G1 X68.756 Y24.569 E58.00930
G1 X100.000 Y55.814 E60.79947
G1 X131.244 Y24.569 E63.58964
G1 X131.244 Y68.756 E66.37981
G1 X175.431 Y68.756 E69.16998
G1 X144.186 Y100.000 E71.96015
G1 X157.248 Y113.062 E73.12659
G1 X155.986 Y113.062 F7800.000
G1 F1800
G1 X142.924 Y100.000 E74.29302
G1 X173.276 Y69.648 E77.00348
G1 X130.352 Y69.648 E79.71393
G1 X130.352 Y26.724 E82.42438
G1 X100.000 Y57.076 E85.13483
G1 X69.648 Y26.724 E87.84528
G1 X69.648 Y69.648 E90.55573
G1 X26.724 Y69.648 E93.26619
G1 X57.076 Y100.000 E95.97664
G1 X26.724 Y130.352 E98.68709
G1 X53.206 Y130.352 E100.35926
G1 X53.206 Y129.459 F7800.000
G1 F1800
G1 X28.880 Y129.459 E101.89535
G1 X58.339 Y100.000 E104.52608
G1 X28.880 Y70.541 E107.15681
G1 X70.541 Y70.541 E109.78754
G1 X70.541 Y28.880 E112.41828
G1 X100.000 Y58.339 E115.04901
G1 X129.459 Y28.880 E117.67974
G1 X129.459 Y70.541 E120.31047
G1 X171.120 Y70.541 E122.94121
G1 X141.661 Y100.000 E125.57194
G1 X154.723 Y113.062 E126.73837
G1 X153.461 Y113.062 F7800.000
G1 F1800
G1 X140.399 Y100.000 E127.90481
G1 X168.965 Y71.434 E130.45582
G1 X128.566 Y71.434 E133.00684
G1 X128.566 Y31.035 E135.55785
G1 X100.000 Y59.601 E138.10886
G1 X71.434 Y31.035 E140.65988
G1 X71.434 Y71.434 E143.21089
G1 X31.035 Y71.434 E145.76190
G1 X59.601 Y100.000 E148.31292
G1 X31.035 Y128.566 E150.86393
G1 X53.206 Y128.566 E152.26392
G1 X53.206 Y127.674 F7800.000
G1 F1800
G1 X33.190 Y127.674 E153.52783
G1 X60.864 Y100.000 E155.99912
G1 X33.190 Y72.326 E158.47042
G1 X72.326 Y72.326 E160.94171
G1 X72.326 Y33.190 E163.41301
G1 X100.000 Y60.864 E165.88430
G1 X127.674 Y33.190 E168.35559
G1 X127.674 Y72.326 E170.82689
G1 X166.810 Y72.326 E173.29818
G1 X139.136 Y100.000 E175.76948
G1 X153.062 Y113.925 E177.01303
G1 X153.062 Y115.188 F7800.000
G1 F1800
G1 X137.874 Y100.000 E178.36932
G1 X164.655 Y73.219 E180.76089
G1 X126.781 Y73.219 E183.15247
G1 X126.781 Y35.345 E185.54404
G1 X100.000 Y62.126 E187.93562
G1 X73.219 Y35.345 E190.32719
G1 X73.219 Y73.219 E192.71877
G1 X35.345 Y73.219 E195.11034
G1 X62.126 Y100.000 E197.50192
G1 X35.345 Y126.781 E199.89349
G1 X53.206 Y126.781 E201.02131
G1 X53.206 Y125.888 F7800.000
G1 F1800
G1 X37.500 Y125.888 E202.01303
G1 X63.388 Y100.000 E204.32489
G1 X37.500 Y74.112 E206.63675
G1 X74.112 Y74.112 E208.94860
G1 X74.112 Y37.500 E211.26046
G1 X100.000 Y63.388 E213.57231
G1 X125.888 Y37.500 E215.88417
G1 X125.888 Y74.112 E218.19603
G1 X162.500 Y74.112 E220.50788
G1 X136.612 Y100.000 E222.81974
G1 X153.062 Y116.450 E224.28877
G1 X153.062 Y117.713 F7800.000
G1 F1800
G1 X135.349 Y100.000 E225.87054
G1 X160.345 Y75.004 E228.10267
G1 X124.996 Y75.004 E230.33481
G1 X124.996 Y39.655 E232.56695
G1 X100.000 Y64.651 E234.79908
G1 X75.004 Y39.655 E237.03122
G1 X75.004 Y75.004 E239.26336
G1 X39.655 Y75.004 E241.49549
G1 X64.651 Y100.000 E243.72763
G1 X39.655 Y124.996 E245.95976
G1 X53.206 Y124.996 E246.81540
G1 X53.206 Y124.103 F7800.000
G1 F1800
G1 X41.811 Y124.103 E247.53495
G1 X65.913 Y100.000 E249.68737
G1 X41.811 Y75.897 E251.83979
G1 X75.897 Y75.897 E253.99221
G1 X75.897 Y41.811 E256.14462
G1 X100.000 Y65.913 E258.29704
G1 X124.103 Y41.811 E260.44946
G1 X124.103 Y75.897 E262.60187
G1 X158.189 Y75.897 E264.75429
G1 X134.087 Y100.000 E266.90671
G1 X153.062 Y118.975 E268.60122
G1 X153.062 Y120.238 F7800.000
G1 F1800
G1 X132.824 Y100.000 E270.40847
G1 X156.034 Y76.790 E272.48117
G1 X123.210 Y76.790 E274.55386
G1 X123.210 Y43.966 E276.62656
G1 X100.000 Y67.176 E278.69926
G1 X76.790 Y43.966 E280.77196
G1 X76.790 Y76.790 E282.84466
G1 X43.966 Y76.790 E284.91736
G1 X67.176 Y100.000 E286.99005
G1 X43.966 Y123.210 E289.06275
G1 X53.206 Y123.210 E289.64621
G92 E0
G1 X77.683 Y123.206 F7800.000
G1 F1800
G1 X77.683 Y122.317 E0.05608
G1 X46.121 Y122.317 E2.04906
G1 X68.438 Y100.000 E4.04204
G1 X46.121 Y77.683 E6.03502
G1 X77.683 Y77.683 E8.02800
G1 X77.683 Y46.121 E10.02098
G1 X100.000 Y68.438 E12.01396
G1 X122.317 Y46.121 E14.00694
G1 X122.317 Y77.683 E15.99992
G1 X153.879 Y77.683 E17.99289
G1 X131.562 Y100.000 E19.98587
G1 X153.062 Y121.500 E21.90586
G1 X153.206 Y122.317 F7800.000
G1 F1800
G1 X122.317 Y122.317 E23.85631
G1 X122.317 Y153.879 E25.84929
G1 X100.000 Y131.562 E27.84227
G1 X86.938 Y144.623 E29.00870
G1 X86.938 Y145.886 F7800.000
G1 F1800
G1 X100.000 Y132.824 E30.17514
G1 X123.210 Y156.034 E32.24784
G1 X123.210 Y123.210 E34.32054
G1 X153.206 Y123.210 E36.21461
G1 X153.206 Y124.103 F7800.000
G1 F1800
G1 X124.103 Y124.103 E38.05232
G1 X124.103 Y158.189 E40.20474
G1 X100.000 Y134.087 E42.35716
G1 X86.938 Y147.148 E43.52359
G1 X86.938 Y148.411 F7800.000
G1 F1800
G1 X100.000 Y135.349 E44.69003
G1 X124.996 Y160.345 E46.92216
G1 X124.996 Y124.996 E49.15430
G1 X153.206 Y124.996 E50.93564
G1 X153.206 Y125.888 F7800.000
G1 F1800
G1 X125.888 Y125.888 E52.66061
G1 X125.888 Y162.500 E54.97246
G1 X100.000 Y136.612 E57.28432
G1 X86.938 Y149.673 E58.45075
G1 X86.938 Y150.936 F7800.000
G1 F1800
G1 X100.000 Y137.874 E59.61719
G1 X126.781 Y164.655 E62.00877
G1 X126.781 Y126.781 E64.40034
G1 X153.206 Y126.781 E66.06894
G1 X153.206 Y127.674 F7800.000
G1 F1800
G1 X127.674 Y127.674 E67.68117
G1 X127.674 Y166.810 E70.15246
G1 X100.000 Y139.136 E72.62375
G1 X86.938 Y152.198 E73.79019
G1 X86.938 Y153.461 F7800.000
G1 F1800
G1 X100.000 Y140.399 E74.95663
G1 X128.566 Y168.965 E77.50764
G1 X128.566 Y128.566 E80.05865
G1 X153.206 Y128.566 E81.61451
G1 X153.206 Y129.459 F7800.000
G1 F1800
G1 X129.459 Y129.459 E83.11400
G1 X129.459 Y171.120 E85.74473
G1 X100.000 Y141.661 E88.37546
G1 X86.938 Y154.723 E89.54190
G1 X86.938 Y155.986 F7800.000
