; generated by Slic3r 1.3.0 on 2023-03-15 at 11:24:36

; external perimeters extrusion width = 1.10mm (14.89mm^3/s)
; perimeters extrusion width = 1.40mm (38.78mm^3/s)
; infill extrusion width = 1.25mm (45.71mm^3/s)
; solid infill extrusion width = 1.40mm (12.93mm^3/s)
; top infill extrusion width = 1.40mm (9.70mm^3/s)

M107
M104 S205 ; set temperature
G28 ; home all axes
G1 Z5 F5000 ; lift nozzle

; Filament gcode

M109 S205 ; set temperature and wait for it to be reached
G21 ; set units to millimeters
G90 ; use absolute coordinates
M82 ; use absolute distances for extrusion
G92 E0
G1 Z0.500 F7800.000
G1 X75.607 Y69.607 F7800.000
G1 F1800
G1 X108.393 Y69.607 E2.07025
G1 X108.393 Y132.393 E6.03487
G1 X75.607 Y132.393 E8.10512
G1 X75.607 Y69.757 E12.06027
G1 X76.500 Y70.500 F7800.000
G1 F1800
G1 X107.500 Y70.500 E14.01778
G1 X107.500 Y131.500 E17.86966
G1 X76.500 Y131.500 E19.82717
G1 X76.500 Y70.650 E23.66958
G1 X76.344 Y69.512 F7800.000
G92 E0
G1 X76.000 Y70.000 F7800.000
G1 X76.000 Y62.000 F7800.000
G1 X77.487 Y60.500 F7800.000
G1 X108.000 Y60.500 F7800.000
G1 X118.147 Y63.210 F7800.000
G1 X119.192 Y70.000 F7800.000
G1 X121.598 Y79.625 F7800.000
G1 X118.357 Y82.866 F7800.000
G1 X118.357 Y93.223 F7800.000
G1 X117.964 Y92.830 F7800.000
G1 F1800
G1 X140.750 Y92.830 E1.43880
G1 X140.750 Y115.616 E2.87759
G1 X117.964 Y115.616 E4.31639
G1 X117.964 Y92.980 E5.74571
G1 X118.857 Y93.723 F7800.000
G1 F1800
G1 X139.857 Y93.723 E7.07177
G1 X139.857 Y114.723 E8.39782
G1 X118.857 Y114.723 E9.72388
G1 X118.857 Y93.873 E11.04047
G1 X118.598 Y92.757 F7800.000
G92 E0
G1 X129.964 Y69.616 F7800.000
G1 F1800
G1 X148.607 Y69.616 E1.17722
G1 X148.607 Y148.607 E6.16519
G1 X67.465 Y148.607 E11.28894
G1 X67.465 Y139.437 E11.86798
G1 X51.393 Y139.437 E12.88289
G1 X51.393 Y123.393 E13.89605
G1 X68.393 Y123.393 E14.96952
G1 X68.393 Y60.607 E18.93414
G1 X51.393 Y60.607 E20.00761
G1 X51.393 Y51.393 E20.58947
G1 X129.964 Y51.393 E25.55093
G1 X129.964 Y69.466 E26.69215
G1 X130.857 Y68.723 F7800.000
G1 F1800
G1 X149.500 Y68.723 E27.86937
G1 X149.500 Y149.500 E32.97008
G1 X66.573 Y149.500 E38.20658
G1 X66.573 Y140.330 E38.78561
G1 X50.500 Y140.330 E39.80052
G1 X50.500 Y122.500 E40.92642
G1 X67.500 Y122.500 E41.99989
G1 X67.500 Y61.500 E45.85177
G1 X50.500 Y61.500 E46.92525
G1 X50.500 Y50.500 E47.61985
G1 X130.857 Y50.500 E52.69404
G1 X130.857 Y68.573 E53.83527
G1 X130.857 Y69.723 F7800.000
G92 E0
G1 X117.419 Y92.061 F7800.000
G1 F1800
G1 X108.938 Y100.542 E0.75823
G1 X108.938 Y101.806 E0.83814
G1 X117.419 Y93.325 E1.59637
G1 X117.419 Y94.589 E1.67628
G1 X108.938 Y103.070 E2.43452
G1 X108.938 Y104.333 E2.51442
G1 X117.419 Y95.853 E3.27266
G1 X117.419 Y97.117 E3.35257
G1 X108.938 Y105.597 E4.11080
G1 X108.938 Y106.861 E4.19071
G1 X117.419 Y98.381 E4.94894
G1 X117.419 Y99.645 E5.02885
G1 X108.938 Y108.125 E5.78708
G1 X108.938 Y109.389 E5.86699
G1 X117.419 Y100.909 E6.62522
G1 X117.419 Y102.173 E6.70513
G1 X108.938 Y110.653 E7.46336
G1 X108.938 Y111.917 E7.54327
G1 X117.419 Y103.437 E8.30150
G1 X117.419 Y104.701 E8.38141
G1 X108.938 Y113.181 E9.13965
G1 X108.938 Y114.445 E9.21955
G1 X117.419 Y105.964 E9.97779
G1 X117.419 Y107.228 E10.05769
G1 X108.938 Y115.709 E10.81593
G1 X108.938 Y116.973 E10.89584
G1 X117.419 Y108.492 E11.65407
G1 X117.419 Y109.756 E11.73398
G1 X108.938 Y118.237 E12.49221
G1 X108.938 Y119.501 E12.57212
G1 X117.419 Y111.020 E13.33035
G1 X117.419 Y112.284 E13.41026
G1 X108.938 Y120.765 E14.16849
G1 X108.938 Y122.029 E14.24840
G1 X117.419 Y113.548 E15.00663
G1 X117.419 Y114.812 E15.08654
G1 X108.938 Y123.293 E15.84478
G1 X108.938 Y124.557 E15.92468
G1 X117.419 Y116.076 E16.68292
G1 X117.419 Y116.161 E16.68829
G1 X118.598 Y116.161 E16.76282
G1 X108.938 Y125.821 E17.62646
G1 X108.938 Y127.085 E17.70637
G1 X119.862 Y116.161 E18.68302
G1 X121.126 Y116.161 E18.76293
G1 X108.938 Y128.349 E19.85258
G1 X108.938 Y129.613 E19.93249
G1 X122.390 Y116.161 E21.13515
G1 X123.654 Y116.161 E21.21506
G1 X108.938 Y130.877 E22.53073
G1 X108.938 Y132.141 E22.61063
G1 X124.918 Y116.161 E24.03931
G1 X126.182 Y116.161 E24.11922
G1 X108.938 Y133.405 E25.66090
G92 E0
G1 X141.295 Y116.215 F7800.000
G1 F1800
G1 X148.062 Y109.448 E0.60497
G1 X148.062 Y108.185 E0.68488
G1 X141.295 Y114.951 E1.28985
G1 X141.295 Y113.687 E1.36976
G1 X148.062 Y106.921 E1.97473
G1 X148.062 Y105.657 E2.05464
G1 X141.295 Y112.423 E2.65962
G1 X141.295 Y111.159 E2.73952
G1 X148.062 Y104.393 E3.34450
G1 X148.062 Y103.129 E3.42440
G1 X141.295 Y109.895 E4.02938
G1 X141.295 Y108.631 E4.10929
G1 X148.062 Y101.865 E4.71426
G1 X148.062 Y100.601 E4.79417
G1 X141.295 Y107.367 E5.39914
G1 X141.295 Y106.103 E5.47905
G1 X148.062 Y99.337 E6.08402
G1 X148.062 Y98.073 E6.16393
G1 X141.295 Y104.839 E6.76890
G1 X141.295 Y103.575 E6.84881
G1 X148.062 Y96.809 E7.45378
G1 X148.062 Y95.545 E7.53369
G1 X141.295 Y102.311 E8.13866
G1 X141.295 Y101.047 E8.21857
G1 X148.062 Y94.281 E8.82354
G1 X148.062 Y93.017 E8.90345
G1 X141.295 Y99.784 E9.50843
G1 X141.295 Y98.520 E9.58833
G1 X148.062 Y91.753 E10.19331
G1 X148.062 Y90.489 E10.27321
G1 X141.295 Y97.256 E10.87819
G1 X141.295 Y95.992 E10.95809
G1 X148.062 Y89.225 E11.56307
G1 X148.062 Y87.961 E11.64298
G1 X141.295 Y94.728 E12.24795
G1 X141.295 Y93.464 E12.32786
G1 X148.062 Y86.697 E12.93283
G1 X148.062 Y85.433 E13.01274
G1 X141.210 Y92.285 E13.62531
G1 X139.946 Y92.285 E13.70522
G1 X148.062 Y84.169 E14.43079
G1 X148.062 Y82.905 E14.51070
G1 X138.682 Y92.285 E15.34929
G1 X137.418 Y92.285 E15.42920
G1 X148.062 Y81.641 E16.38079
G1 X148.062 Y80.377 E16.46069
G1 X136.154 Y92.285 E17.52529
G1 X134.890 Y92.285 E17.60520
G1 X148.062 Y79.113 E18.78281
G1 X148.062 Y77.849 E18.86271
G1 X133.627 Y92.285 E20.15333
G1 X132.363 Y92.285 E20.23323
G1 X148.062 Y76.586 E21.63685
G1 X148.062 Y75.322 E21.71676
G1 X131.099 Y92.285 E23.23339
G1 X129.835 Y92.285 E23.31329
G1 X148.062 Y74.058 E24.94293
G1 X148.062 Y72.794 E25.02283
G1 X128.571 Y92.285 E26.76547
G1 X127.307 Y92.285 E26.84538
G1 X148.062 Y71.530 E28.70103
G1 X148.062 Y70.266 E28.78094
G1 X126.043 Y92.285 E30.74959
G1 X124.779 Y92.285 E30.82950
G1 X146.902 Y70.161 E32.80750
G1 X145.638 Y70.161 E32.88741
G1 X123.515 Y92.285 E34.86541
G1 X122.251 Y92.285 E34.94532
G1 X144.375 Y70.161 E36.92332
G1 X143.111 Y70.161 E37.00323
G1 X120.987 Y92.285 E38.98124
G1 X119.723 Y92.285 E39.06114
G1 X141.847 Y70.161 E41.03915
G1 X140.583 Y70.161 E41.11906
G1 X118.459 Y92.285 E43.09706
G1 X117.195 Y92.285 E43.17697
G1 X139.319 Y70.161 E45.15497
G1 X138.055 Y70.161 E45.23488
G1 X108.938 Y99.278 E47.83810
G1 X108.938 Y98.014 E47.91800
G1 X136.791 Y70.161 E50.40822
G1 X135.527 Y70.161 E50.48812
G1 X108.938 Y96.750 E52.86533
G1 X108.938 Y95.486 E52.94523
G1 X134.263 Y70.161 E55.20943
G1 X132.999 Y70.161 E55.28934
G1 X108.938 Y94.222 E57.44053
G1 X108.938 Y92.958 E57.52044
G1 X131.735 Y70.161 E59.55862
G1 X130.471 Y70.161 E59.63853
G1 X108.938 Y91.694 E61.56370
G1 X108.938 Y90.430 E61.64361
G1 X129.419 Y69.949 E63.47473
G1 X129.419 Y68.685 E63.55464
G1 X108.938 Y89.166 E65.38575
G1 X108.938 Y87.902 E65.46566
G1 X129.419 Y67.421 E67.29677
G1 X129.419 Y66.157 E67.37668
G1 X108.938 Y86.638 E69.20780
G1 X108.938 Y85.374 E69.28770
G1 X129.419 Y64.893 E71.11882
G1 X129.419 Y63.629 E71.19873
G1 X108.938 Y84.110 E73.02984
G1 X108.938 Y82.846 E73.10975
G1 X129.419 Y62.365 E74.94087
G1 X129.419 Y61.102 E75.02077
G1 X108.938 Y81.582 E76.85189
G1 X108.938 Y80.318 E76.93180
G1 X129.419 Y59.838 E78.76291
G1 X129.419 Y58.574 E78.84282
G1 X108.938 Y79.054 E80.67394
G1 X108.938 Y77.790 E80.75385
G1 X129.419 Y57.310 E82.58496
G1 X129.419 Y56.046 E82.66487
G1 X108.938 Y76.526 E84.49599
G1 X108.938 Y75.262 E84.57589
G1 X129.419 Y54.782 E86.40701
G1 X129.419 Y53.518 E86.48692
G1 X108.938 Y73.998 E88.31803
G1 X108.938 Y72.734 E88.39794
G1 X129.419 Y52.254 E90.22906
G1 X129.419 Y51.938 E90.24901
G1 X128.471 Y51.938 E90.30897
G1 X108.938 Y71.471 E92.05529
G1 X108.938 Y70.207 E92.13520
G1 X127.207 Y51.938 E93.76852
G1 X125.943 Y51.938 E93.84842
G1 X108.819 Y69.062 E95.37939
G1 X107.555 Y69.062 E95.45930
G1 X124.679 Y51.938 E96.99027
G1 X123.415 Y51.938 E97.07018
G1 X106.291 Y69.062 E98.60114
G1 X105.027 Y69.062 E98.68105
G1 X122.151 Y51.938 E100.21202
G1 X120.887 Y51.938 E100.29193
G1 X103.763 Y69.062 E101.82290
G1 X102.499 Y69.062 E101.90281
G1 X119.623 Y51.938 E103.43377
G1 X118.359 Y51.938 E103.51368
G1 X101.235 Y69.062 E105.04465
G1 X99.971 Y69.062 E105.12456
G1 X117.095 Y51.938 E106.65553
G1 X115.831 Y51.938 E106.73544
G1 X98.707 Y69.062 E108.26640
G1 X97.443 Y69.062 E108.34631
G1 X114.567 Y51.938 E109.87728
G1 X113.303 Y51.938 E109.95719
G1 X96.179 Y69.062 E111.48816
G1 X94.915 Y69.062 E111.56806
G1 X112.039 Y51.938 E113.09903
G1 X110.775 Y51.938 E113.17894
G1 X93.651 Y69.062 E114.70991
G1 X92.388 Y69.062 E114.78982
G1 X109.511 Y51.938 E116.32079
G1 X108.247 Y51.938 E116.40069
G1 X91.124 Y69.062 E117.93166
G1 X89.860 Y69.062 E118.01157
G1 X106.983 Y51.938 E119.54254
G1 X105.719 Y51.938 E119.62245
G1 X88.596 Y69.062 E121.15342
G1 X87.332 Y69.062 E121.23332
G1 X104.455 Y51.938 E122.76429
G1 X103.191 Y51.938 E122.84420
G1 X86.068 Y69.062 E124.37517
G1 X84.804 Y69.062 E124.45508
G1 X101.927 Y51.938 E125.98604
G1 X100.663 Y51.938 E126.06595
G1 X83.540 Y69.062 E127.59692
G1 X82.276 Y69.062 E127.67683
G1 X99.399 Y51.938 E129.20780
G1 X98.135 Y51.938 E129.28771
G1 X81.012 Y69.062 E130.81867
G1 X79.748 Y69.062 E130.89858
G1 X96.872 Y51.938 E132.42955
G1 X95.608 Y51.938 E132.50946
G1 X78.484 Y69.062 E134.04043
G1 X77.220 Y69.062 E134.12034
G1 X94.344 Y51.938 E135.65130
G1 X93.080 Y51.938 E135.73121
G1 X75.956 Y69.062 E137.26218
G1 X74.692 Y69.062 E137.34209
G1 X91.816 Y51.938 E138.87306
G1 X90.552 Y51.938 E138.95296
G1 X68.938 Y73.552 E140.88536
G1 X68.938 Y72.288 E140.96527
G1 X89.288 Y51.938 E142.78466
G1 X88.024 Y51.938 E142.86457
G1 X68.938 Y71.024 E144.57095
G1 X68.938 Y69.760 E144.65086
G1 X86.760 Y51.938 E146.24423
G1 X85.496 Y51.938 E146.32414
G1 X68.938 Y68.496 E147.80451
G1 X68.938 Y67.232 E147.88442
G1 X84.232 Y51.938 E149.25178
G1 X82.968 Y51.938 E149.33169
G1 X68.938 Y65.968 E150.58604
G1 X68.938 Y64.704 E150.66595
G1 X81.704 Y51.938 E151.80730
G1 X80.440 Y51.938 E151.88720
G1 X68.938 Y63.440 E152.91555
G1 X68.938 Y62.176 E152.99545
G1 X79.176 Y51.938 E153.91079
G1 X77.912 Y51.938 E153.99070
G1 X68.938 Y60.912 E154.79303
G1 X68.938 Y60.062 E154.84678
G1 X68.525 Y60.062 E154.87293
G1 X76.648 Y51.938 E155.59924
G1 X75.384 Y51.938 E155.67915
G1 X67.261 Y60.062 E156.40545
G1 X65.997 Y60.062 E156.48536
G1 X74.120 Y51.938 E157.21167
G1 X72.856 Y51.938 E157.29158
G1 X64.733 Y60.062 E158.01788
G1 X63.469 Y60.062 E158.09779
G1 X71.592 Y51.938 E158.82410
G1 X70.328 Y51.938 E158.90400
G1 X62.205 Y60.062 E159.63031
G1 X60.941 Y60.062 E159.71022
G1 X69.064 Y51.938 E160.43653
G1 X67.800 Y51.938 E160.51643
G1 X59.677 Y60.062 E161.24274
G1 X58.413 Y60.062 E161.32265
G1 X66.536 Y51.938 E162.04895
G1 X65.272 Y51.938 E162.12886
G1 X57.149 Y60.062 E162.85517
G1 X55.885 Y60.062 E162.93508
G1 X64.009 Y51.938 E163.66138
G1 X62.745 Y51.938 E163.74129
G1 X54.621 Y60.062 E164.46760
G1 X53.357 Y60.062 E164.54750
G1 X61.481 Y51.938 E165.27381
G1 X60.217 Y51.938 E165.35372
G1 X52.093 Y60.062 E166.08002
G1 X51.938 Y60.062 E166.08981
G1 X51.938 Y58.953 E166.15993
G1 X58.953 Y51.938 E166.78708
G1 X57.689 Y51.938 E166.86698
G1 X51.938 Y57.689 E167.38112
G1 X51.938 Y56.425 E167.46103
G1 X56.425 Y51.938 E167.86216
G1 X55.161 Y51.938 E167.94207
G1 X51.938 Y55.161 E168.23019
G1 X51.938 Y53.897 E168.31010
G1 X53.897 Y51.938 E168.48521
G1 X52.633 Y51.938 E168.56512
G1 X51.939 Y52.633 E168.62720
G92 E0
G1 X51.000 Y51.000 F7800.000
G1 X56.000 Y56.000 F7800.000
G1 X68.000 Y56.000 F7800.000
G1 X77.487 Y60.500 F7800.000
G1 X76.000 Y62.000 F7800.000
G1 X76.000 Y70.000 F7800.000
G1 X75.062 Y68.692 F7800.000
G1 F1800
G1 X68.938 Y74.816 E0.54749
G1 X68.938 Y76.080 E0.62740
G1 X75.062 Y69.956 E1.17489
G1 X75.062 Y71.220 E1.25480
G1 X68.938 Y77.344 E1.80229
G1 X68.938 Y78.608 E1.88220
G1 X75.062 Y72.484 E2.42969
G1 X75.062 Y73.748 E2.50960
G1 X68.938 Y79.871 E3.05709
G1 X68.938 Y81.135 E3.13700
G1 X75.062 Y75.012 E3.68449
G1 X75.062 Y76.276 E3.76440
G1 X68.938 Y82.399 E4.31189
G1 X68.938 Y83.663 E4.39180
G1 X75.062 Y77.540 E4.93929
G1 X75.062 Y78.804 E5.01920
G1 X68.938 Y84.927 E5.56669
G1 X68.938 Y86.191 E5.64660
G1 X75.062 Y80.068 E6.19409
G1 X75.062 Y81.332 E6.27400
G1 X68.938 Y87.455 E6.82149
G1 X68.938 Y88.719 E6.90140
G1 X75.062 Y82.596 E7.44889
G1 X75.062 Y83.860 E7.52880
G1 X68.938 Y89.983 E8.07629
G1 X68.938 Y91.247 E8.15620
G1 X75.062 Y85.124 E8.70369
G1 X75.062 Y86.387 E8.78360
G1 X68.938 Y92.511 E9.33109
G1 X68.938 Y93.775 E9.41100
G1 X75.062 Y87.651 E9.95849
G1 X75.062 Y88.915 E10.03840
G1 X68.938 Y95.039 E10.58589
G1 X68.938 Y96.303 E10.66580
G1 X75.062 Y90.179 E11.21329
G1 X75.062 Y91.443 E11.29320
G1 X68.938 Y97.567 E11.84069
G1 X68.938 Y98.831 E11.92060
G1 X75.062 Y92.707 E12.46809
G1 X75.062 Y93.971 E12.54800
G1 X68.938 Y100.095 E13.09549
G1 X68.938 Y101.359 E13.17540
G1 X75.062 Y95.235 E13.72289
G1 X75.062 Y96.499 E13.80280
G1 X68.938 Y102.623 E14.35029
G1 X68.938 Y103.887 E14.43020
G1 X75.062 Y97.763 E14.97769
G1 X75.062 Y99.027 E15.05760
G1 X68.938 Y105.151 E15.60509
G1 X68.938 Y106.415 E15.68500
G1 X75.062 Y100.291 E16.23249
G1 X75.062 Y101.555 E16.31240
G1 X68.938 Y107.679 E16.85989
G1 X68.938 Y108.943 E16.93980
G1 X75.062 Y102.819 E17.48729
G1 X75.062 Y104.083 E17.56720
G1 X68.938 Y110.207 E18.11469
G1 X68.938 Y111.470 E18.19460
G1 X75.062 Y105.347 E18.74209
G1 X75.062 Y106.611 E18.82200
G1 X68.938 Y112.734 E19.36949
G1 X68.938 Y113.998 E19.44940
G1 X75.062 Y107.875 E19.99689
G1 X75.062 Y109.139 E20.07680
G1 X68.938 Y115.262 E20.62429
G1 X68.938 Y116.526 E20.70420
G1 X75.062 Y110.403 E21.25169
G1 X75.062 Y111.667 E21.33160
G1 X68.938 Y117.790 E21.87909
G1 X68.938 Y119.054 E21.95900
G1 X75.062 Y112.931 E22.50649
G1 X75.062 Y114.195 E22.58640
G1 X68.938 Y120.318 E23.13389
G1 X68.938 Y121.582 E23.21380
G1 X75.062 Y115.459 E23.76129
G1 X75.062 Y116.723 E23.84120
G1 X68.938 Y122.846 E24.38869
G1 X68.938 Y124.110 E24.46860
G1 X75.062 Y117.987 E25.01609
G1 X75.062 Y119.250 E25.09600
G1 X55.420 Y138.892 E26.85209
G1 X56.684 Y138.892 E26.93200
G1 X75.062 Y120.514 E28.57508
G1 X75.062 Y121.778 E28.65499
G1 X57.948 Y138.892 E30.18506
G1 X59.212 Y138.892 E30.26497
G1 X75.062 Y123.042 E31.68204
G1 X75.062 Y124.306 E31.76195
G1 X60.476 Y138.892 E33.06601
G1 X61.740 Y138.892 E33.14592
G1 X75.062 Y125.570 E34.33697
G1 X75.062 Y126.834 E34.41688
G1 X63.004 Y138.892 E35.49493
G1 X64.268 Y138.892 E35.57484
G1 X75.062 Y128.098 E36.53988
G1 X75.062 Y129.362 E36.61979
G1 X65.532 Y138.892 E37.47182
G1 X66.796 Y138.892 E37.55173
G1 X75.062 Y130.626 E38.29076
G1 X75.062 Y131.890 E38.37066
G1 X68.011 Y138.941 E39.00107
G1 X68.011 Y140.205 E39.08098
G1 X75.278 Y132.938 E39.73068
G1 X76.542 Y132.938 E39.81059
G1 X68.011 Y141.469 E40.57330
G1 X68.011 Y142.733 E40.65321
G1 X77.806 Y132.938 E41.52893
G1 X79.070 Y132.938 E41.60884
G1 X68.011 Y143.997 E42.59756
G1 X68.011 Y145.261 E42.67747
G1 X80.333 Y132.938 E43.77921
G1 X81.597 Y132.938 E43.85911
G1 X68.011 Y146.525 E45.07385
G1 X68.011 Y147.789 E45.15376
G1 X82.861 Y132.938 E46.48151
G1 X84.125 Y132.938 E46.56141
G1 X69.002 Y148.062 E47.91357
G1 X70.266 Y148.062 E47.99348
G1 X85.389 Y132.938 E49.34563
G1 X86.653 Y132.938 E49.42554
G1 X71.530 Y148.062 E50.77770
G1 X72.794 Y148.062 E50.85760
G1 X87.917 Y132.938 E52.20976
G1 X89.181 Y132.938 E52.28967
G1 X74.058 Y148.062 E53.64182
G1 X75.322 Y148.062 E53.72173
G1 X90.445 Y132.938 E55.07388
G1 X91.709 Y132.938 E55.15379
G1 X76.586 Y148.062 E56.50595
G1 X77.849 Y148.062 E56.58585
G1 X92.973 Y132.938 E57.93801
G1 X94.237 Y132.938 E58.01792
G1 X79.113 Y148.062 E59.37007
G1 X80.377 Y148.062 E59.44998
G1 X95.501 Y132.938 E60.80213
G1 X96.765 Y132.938 E60.88204
G1 X81.641 Y148.062 E62.23420
G1 X82.905 Y148.062 E62.31411
G1 X98.029 Y132.938 E63.66626
G1 X99.293 Y132.938 E63.74617
G1 X84.169 Y148.062 E65.09832
G1 X85.433 Y148.062 E65.17823
G1 X100.557 Y132.938 E66.53039
G1 X101.821 Y132.938 E66.61029
