; generated by Slic3r 1.3.0 on 2023-03-15 at 19:34:59

; external perimeters extrusion width = 1.10mm (14.89mm^3/s)
; perimeters extrusion width = 1.40mm (38.78mm^3/s)
; infill extrusion width = 1.25mm (45.71mm^3/s)
; solid infill extrusion width = 1.40mm (12.93mm^3/s)
; top infill extrusion width = 1.40mm (9.70mm^3/s)

M107
M104 S205 ; set temperature
G28 ; home all axes
G1 Z5 F5000 ; lift nozzle

; Filament gcode

M109 S205 ; set temperature and wait for it to be reached
G21 ; set units to millimeters
G90 ; use absolute coordinates
M82 ; use absolute distances for extrusion
G92 E0
G1 Z0.500 F7800.000
G1 X75.607 Y69.607 F7800.000
G1 F1800
G1 X108.393 Y69.607 E2.07025
G1 X108.393 Y132.393 E6.03487
G1 X75.607 Y132.393 E8.10512
G1 X75.607 Y69.757 E12.06027
G1 X76.500 Y70.500 F7800.000
G1 F1800
G1 X107.500 Y70.500 E14.01778
G1 X107.500 Y131.500 E17.86966
G1 X76.500 Y131.500 E19.82717
G1 X76.500 Y70.650 E23.66958
G1 X76.344 Y69.512 F7800.000
G92 E0
G1 X76.000 Y70.000 F7800.000
G1 X76.000 Y62.000 F7800.000
G1 X77.487 Y60.500 F7800.000
G1 X108.000 Y60.500 F7800.000
G1 X118.147 Y63.210 F7800.000
G1 X119.192 Y70.000 F7800.000
G1 X121.598 Y79.625 F7800.000
G1 X118.357 Y82.866 F7800.000
G1 X118.357 Y93.223 F7800.000
G1 X117.964 Y92.830 F7800.000
G1 F1800
G1 X140.750 Y92.830 E1.43880
G1 X140.750 Y115.616 E2.87759
G1 X117.964 Y115.616 E4.31639
G1 X117.964 Y92.980 E5.74571
G1 X118.857 Y93.723 F7800.000
G1 F1800
G1 X139.857 Y93.723 E7.07177
G1 X139.857 Y114.723 E8.39782
G1 X118.857 Y114.723 E9.72388
G1 X118.857 Y93.873 E11.04047
G1 X118.598 Y92.757 F7800.000
G92 E0
G1 X129.964 Y69.616 F7800.000
G1 F1800
G1 X148.607 Y69.616 E1.17722
G1 X148.607 Y148.607 E6.16519
G1 X128.607 Y148.607 E7.42815
G1 X130.121 Y146.762 E7.57886
G1 X131.245 Y144.658 E7.72953
G1 X131.938 Y142.375 E7.88020
G1 X132.172 Y140.000 E8.03088
G1 X131.938 Y137.625 E8.18155
G1 X131.245 Y135.342 E8.33222
G1 X130.121 Y133.238 E8.48289
G1 X128.607 Y131.393 E8.63357
G1 X126.762 Y129.879 E8.78424
G1 X124.658 Y128.755 E8.93491
G1 X122.375 Y128.062 E9.08558
G1 X120.000 Y127.828 E9.23626
G1 X117.625 Y128.062 E9.38693
G1 X115.342 Y128.755 E9.53760
G1 X113.238 Y129.879 E9.68828
G1 X111.393 Y131.393 E9.83895
G1 X109.879 Y133.238 E9.98962
G1 X108.755 Y135.342 E10.14029
G1 X108.062 Y137.625 E10.29097
G1 X107.828 Y140.000 E10.44164
G1 X108.062 Y142.375 E10.59231
G1 X108.755 Y144.658 E10.74298
G1 X109.879 Y146.762 E10.89366
G1 X111.393 Y148.607 E11.04437
G1 X67.465 Y148.607 E13.81824
G1 X67.465 Y139.437 E14.39727
G1 X51.393 Y139.437 E15.41218
G1 X51.393 Y123.393 E16.42534
G1 X68.393 Y123.393 E17.49881
G1 X68.393 Y60.607 E21.46343
G1 X51.393 Y60.607 E22.53691
G1 X51.393 Y51.393 E23.11877
G1 X129.964 Y51.393 E28.08022
G1 X129.964 Y69.466 E29.22144
G1 X130.857 Y68.723 F7800.000
G1 F1800
G1 X149.500 Y68.723 E30.39866
G1 X149.500 Y149.500 E35.49937
G1 X126.111 Y149.500 E36.97626
G1 X127.973 Y147.973 E37.12829
G1 X129.375 Y146.264 E37.26786
G1 X130.417 Y144.315 E37.40743
G1 X131.058 Y142.200 E37.54700
G1 X131.275 Y140.000 E37.68657
G1 X131.058 Y137.800 E37.82614
G1 X130.417 Y135.685 E37.96571
G1 X129.375 Y133.736 E38.10528
G1 X127.973 Y132.027 E38.24484
G1 X126.264 Y130.625 E38.38441
G1 X124.315 Y129.583 E38.52398
G1 X122.200 Y128.942 E38.66355
G1 X120.000 Y128.725 E38.80312
G1 X117.800 Y128.942 E38.94269
G1 X115.685 Y129.583 E39.08226
G1 X113.736 Y130.625 E39.22183
G1 X112.027 Y132.027 E39.36139
G1 X110.625 Y133.736 E39.50096
G1 X109.583 Y135.685 E39.64053
G1 X108.942 Y137.800 E39.78010
G1 X108.725 Y140.000 E39.91967
G1 X108.942 Y142.200 E40.05924
G1 X109.583 Y144.315 E40.19881
G1 X110.625 Y146.264 E40.33838
G1 X112.027 Y147.973 E40.47795
G1 X113.889 Y149.500 E40.62998
G1 X66.573 Y149.500 E43.61778
G1 X66.573 Y140.330 E44.19681
G1 X50.500 Y140.330 E45.21172
G1 X50.500 Y122.500 E46.33762
G1 X67.500 Y122.500 E47.41109
G1 X67.500 Y61.500 E51.26297
G1 X50.500 Y61.500 E52.33644
G1 X50.500 Y50.500 E53.03105
G1 X130.857 Y50.500 E58.10524
G1 X130.857 Y68.573 E59.24646
G1 X130.857 Y69.723 F7800.000
G1 X129.435 Y68.258 F7800.000
G1 F1800
G1 X128.180 Y67.144 E59.35245
G1 X127.494 Y66.572 E59.40882
G1 X126.089 Y65.472 E59.52155
G1 X125.369 Y64.943 E59.57793
G1 X123.898 Y63.931 E59.69066
G1 X122.387 Y62.981 E59.80340
G1 X121.617 Y62.530 E59.85977
G1 X120.049 Y61.675 E59.97251
G1 X118.448 Y60.885 E60.08524
G1 X116.816 Y60.163 E60.19798
G1 X115.155 Y59.508 E60.31071
G1 X114.314 Y59.206 E60.36709
G1 X112.616 Y58.656 E60.47982
G1 X110.896 Y58.176 E60.59256
G1 X109.159 Y57.767 E60.70530
G1 X108.284 Y57.590 E60.76167
G1 X106.524 Y57.289 E60.87440
G1 X104.753 Y57.062 E60.98714
G1 X103.864 Y56.976 E61.04351
G1 X102.083 Y56.859 E61.15625
G1 X100.298 Y56.816 E61.26898
G1 X98.513 Y56.846 E61.38172
G1 X97.621 Y56.889 E61.43809
G1 X95.841 Y57.030 E61.55083
G1 X94.069 Y57.245 E61.66356
G1 X93.187 Y57.379 E61.71993
G1 X91.431 Y57.703 E61.83267
G1 X89.690 Y58.100 E61.94541
G1 X87.967 Y58.568 E62.05814
G1 X87.113 Y58.828 E62.11451
G1 X85.423 Y59.402 E62.22725
G1 X83.757 Y60.046 E62.33999
G1 X82.120 Y60.758 E62.45272
G1 X81.313 Y61.139 E62.50909
G1 X79.723 Y61.951 E62.62183
G1 X78.168 Y62.828 E62.73457
G1 X76.651 Y63.769 E62.84730
G1 X75.174 Y64.772 E62.96004
G1 X74.451 Y65.296 E63.01641
G1 X73.039 Y66.389 E63.12915
G1 X71.674 Y67.539 E63.24188
G1 X70.357 Y68.745 E63.35462
G1 X68.941 Y70.157 E63.48091
G1 X68.936 Y68.888 F7800.000
G1 F1800
G1 X70.184 Y67.682 E63.59050
G1 X70.844 Y67.081 E63.64687
G1 X72.201 Y65.920 E63.75961
G1 X73.603 Y64.816 E63.87234
G1 X74.321 Y64.285 E63.92872
G1 X75.788 Y63.268 E64.04145
G1 X77.295 Y62.311 E64.15419
G1 X78.840 Y61.416 E64.26692
G1 X80.420 Y60.584 E64.37966
G1 X81.222 Y60.192 E64.43603
G1 X82.849 Y59.458 E64.54877
G1 X84.505 Y58.791 E64.66151
G1 X86.187 Y58.191 E64.77424
G1 X87.891 Y57.660 E64.88698
G1 X88.751 Y57.420 E64.94335
G1 X90.485 Y56.994 E65.05609
G1 X92.235 Y56.638 E65.16882
G1 X93.997 Y56.353 E65.28156
G1 X95.770 Y56.140 E65.39430
G1 X96.659 Y56.061 E65.45067
G1 X98.441 Y55.956 E65.56340
G1 X100.226 Y55.923 E65.67614
G1 X102.011 Y55.962 E65.78888
G1 X103.793 Y56.074 E65.90161
G1 X104.682 Y56.157 E65.95798
G1 X106.454 Y56.377 E66.07072
G1 X108.215 Y56.668 E66.18346
G1 X109.091 Y56.841 E66.23983
G1 X110.831 Y57.238 E66.35256
G1 X112.554 Y57.706 E66.46530
G1 X113.408 Y57.966 E66.52167
G1 X115.100 Y58.537 E66.63441
G1 X116.767 Y59.177 E66.74714
G1 X118.406 Y59.883 E66.85988
G1 X120.016 Y60.655 E66.97262
G1 X120.809 Y61.065 E67.02899
G1 X122.369 Y61.933 E67.14173
G1 X123.893 Y62.864 E67.25446
G1 X124.640 Y63.352 E67.31083
G1 X126.105 Y64.373 E67.42357
G1 X127.527 Y65.453 E67.53631
G1 X128.221 Y66.014 E67.59268
G1 X129.441 Y67.060 E67.69415
G1 X129.448 Y65.879 F7800.000
G1 F1800
G1 X128.057 Y64.734 E67.80787
G1 X126.635 Y63.655 E67.92061
G1 X125.908 Y63.137 E67.97698
G1 X124.424 Y62.144 E68.08972
G1 X122.902 Y61.211 E68.20245
G1 X122.128 Y60.767 E68.25883
G1 X120.553 Y59.926 E68.37156
G1 X118.946 Y59.148 E68.48430
G1 X117.309 Y58.434 E68.59704
G1 X115.646 Y57.786 E68.70977
G1 X113.958 Y57.204 E68.82251
G1 X112.248 Y56.690 E68.93525
G1 X111.386 Y56.458 E68.99162
G1 X109.649 Y56.046 E69.10435
G1 X108.775 Y55.866 E69.16072
G1 X107.016 Y55.558 E69.27346
G1 X105.247 Y55.321 E69.38620
G1 X104.359 Y55.228 E69.44257
G1 X102.578 Y55.096 E69.55531
G1 X100.794 Y55.035 E69.66804
G1 X99.009 Y55.044 E69.78078
G1 X97.225 Y55.125 E69.89351
G1 X96.335 Y55.192 E69.94989
G1 X94.559 Y55.378 E70.06262
G1 X93.675 Y55.498 E70.11899
G1 X91.913 Y55.789 E70.23173
G1 X90.165 Y56.151 E70.34447
G1 X89.297 Y56.358 E70.40084
G1 X87.573 Y56.823 E70.51357
G1 X85.869 Y57.356 E70.62631
G1 X84.188 Y57.957 E70.73905
G1 X82.532 Y58.623 E70.85178
G1 X81.714 Y58.981 E70.90816
G1 X80.100 Y59.746 E71.02089
G1 X78.518 Y60.573 E71.13363
G1 X76.971 Y61.464 E71.24637
G1 X75.460 Y62.415 E71.35910
G1 X73.988 Y63.425 E71.47184
G1 X73.267 Y63.952 E71.52821
G1 X71.858 Y65.048 E71.64095
G1 X70.494 Y66.199 E71.75368
G1 X68.926 Y67.637 E71.88798
G1 X68.926 Y66.417 F7800.000
G1 F1800
G1 X69.954 Y65.485 E71.97558
G1 X70.631 Y64.904 E72.03195
G1 X72.019 Y63.781 E72.14469
G1 X73.449 Y62.712 E72.25743
G1 X74.180 Y62.199 E72.31380
G1 X75.671 Y61.217 E72.42653
G1 X77.198 Y60.293 E72.53927
G1 X78.761 Y59.429 E72.65201
G1 X80.356 Y58.627 E72.76474
G1 X81.165 Y58.250 E72.82112
G1 X82.804 Y57.542 E72.93385
G1 X84.470 Y56.899 E73.04659
G1 X86.159 Y56.322 E73.15933
G1 X87.870 Y55.810 E73.27206
G1 X88.732 Y55.580 E73.32843
G1 X90.469 Y55.169 E73.44117
G1 X92.222 Y54.827 E73.55391
G1 X93.986 Y54.552 E73.66664
G1 X95.759 Y54.347 E73.77938
G1 X96.649 Y54.271 E73.83575
G1 X98.431 Y54.169 E73.94849
G1 X100.216 Y54.137 E74.06122
G1 X102.001 Y54.175 E74.17396
G1 X103.783 Y54.282 E74.28670
G1 X104.673 Y54.362 E74.34307
G1 X106.445 Y54.573 E74.45581
G1 X108.209 Y54.852 E74.56854
G1 X109.086 Y55.018 E74.62491
G1 X110.830 Y55.400 E74.73765
G1 X112.558 Y55.849 E74.85039
G1 X113.415 Y56.099 E74.90676
G1 X115.113 Y56.649 E75.01950
G1 X116.789 Y57.264 E75.13223
G1 X118.440 Y57.944 E75.24497
G1 X120.063 Y58.688 E75.35771
G1 X120.864 Y59.083 E75.41408
G1 X122.441 Y59.920 E75.52681
G1 X123.984 Y60.817 E75.63955
G1 X124.742 Y61.288 E75.69592
G1 X126.231 Y62.274 E75.80866
G1 X127.680 Y63.317 E75.92139
G1 X129.456 Y64.709 E76.06388
G1 X129.459 Y63.564 F7800.000
G1 F1800
G1 X127.804 Y62.298 E76.19548
G1 X126.344 Y61.270 E76.30822
G1 X124.846 Y60.299 E76.42095
G1 X124.083 Y59.835 E76.47732
G1 X122.532 Y58.951 E76.59006
G1 X121.744 Y58.531 E76.64643
G1 X120.145 Y57.737 E76.75917
G1 X118.517 Y57.005 E76.87191
G1 X116.862 Y56.335 E76.98464
G1 X115.183 Y55.729 E77.09738
G1 X113.481 Y55.187 E77.21012
G1 X112.623 Y54.941 E77.26649
G1 X110.894 Y54.497 E77.37922
G1 X109.149 Y54.120 E77.49196
G1 X108.271 Y53.957 E77.54833
G1 X106.508 Y53.680 E77.66107
G1 X105.622 Y53.567 E77.71744
G1 X103.845 Y53.392 E77.83018
G1 X102.063 Y53.284 E77.94291
G1 X100.278 Y53.245 E78.05565
G1 X98.493 Y53.274 E78.16839
G1 X96.710 Y53.371 E78.28112
G1 X95.821 Y53.445 E78.33749
G1 X94.047 Y53.644 E78.45023
G1 X92.281 Y53.910 E78.56297
G1 X90.527 Y54.244 E78.67571
G1 X88.788 Y54.645 E78.78844
G1 X87.924 Y54.870 E78.84481
G1 X86.210 Y55.369 E78.95755
G1 X84.516 Y55.934 E79.07029
G1 X82.845 Y56.563 E79.18302
G1 X81.199 Y57.256 E79.29576
G1 X79.582 Y58.010 E79.40850
G1 X78.784 Y58.411 E79.46487
G1 X77.212 Y59.257 E79.57761
G1 X75.673 Y60.163 E79.69034
G1 X74.917 Y60.638 E79.74671
G1 X73.433 Y61.631 E79.85945
G1 X71.988 Y62.679 E79.97219
G1 X70.585 Y63.782 E80.08492
G1 X68.914 Y65.207 E80.22354
G1 X68.911 Y64.024 F7800.000
G1 F1800
G1 X70.347 Y62.826 E80.34159
G1 X71.760 Y61.735 E80.45433
G1 X73.213 Y60.698 E80.56706
G1 X73.954 Y60.200 E80.62344
G1 X75.463 Y59.246 E80.73617
G1 X77.007 Y58.349 E80.84891
G1 X78.583 Y57.511 E80.96165
G1 X80.190 Y56.733 E81.07438
G1 X81.004 Y56.366 E81.13075
G1 X82.652 Y55.680 E81.24349
G1 X84.324 Y55.055 E81.35623
G1 X86.019 Y54.494 E81.46897
G1 X87.734 Y53.996 E81.58170
G1 X88.598 Y53.772 E81.63807
G1 X90.338 Y53.372 E81.75081
G1 X92.091 Y53.037 E81.86355
G1 X92.973 Y52.895 E81.91992
G1 X94.742 Y52.659 E82.03265
G1 X96.520 Y52.490 E82.14539
G1 X97.411 Y52.430 E82.20176
G1 X99.195 Y52.361 E82.31450
G1 X100.980 Y52.359 E82.42724
G1 X102.764 Y52.424 E82.53997
G1 X104.545 Y52.556 E82.65271
G1 X105.433 Y52.647 E82.70908
G1 X107.203 Y52.878 E82.82182
G1 X108.963 Y53.176 E82.93456
G1 X110.711 Y53.539 E83.04729
G1 X112.445 Y53.967 E83.16003
G1 X114.160 Y54.460 E83.27277
G1 X115.011 Y54.731 E83.32914
G1 X116.697 Y55.319 E83.44187
G1 X118.359 Y55.970 E83.55461
G1 X119.996 Y56.683 E83.66735
G1 X120.804 Y57.063 E83.72372
G1 X122.398 Y57.866 E83.83646
G1 X123.961 Y58.729 E83.94919
G1 X124.731 Y59.182 E84.00556
G1 X126.243 Y60.131 E84.11830
G1 X127.718 Y61.136 E84.23104
G1 X129.464 Y62.428 E84.36816
G1 X129.465 Y61.311 F7800.000
G1 F1800
G1 X128.152 Y60.349 E84.47094
G1 X126.674 Y59.347 E84.58368
G1 X125.161 Y58.399 E84.69642
G1 X124.392 Y57.947 E84.75279
G1 X123.614 Y57.508 E84.80916
G1 X122.035 Y56.674 E84.92190
G1 X121.235 Y56.279 E84.97827
G1 X119.613 Y55.534 E85.09100
G1 X117.964 Y54.848 E85.20374
G1 X117.131 Y54.528 E85.26011
G1 X115.447 Y53.934 E85.37285
G1 X114.597 Y53.661 E85.42922
G1 X113.742 Y53.403 E85.48559
G1 X112.020 Y52.935 E85.59833
G1 X110.281 Y52.530 E85.71107
G1 X108.566 Y52.196 E85.82135
G92 E0
G1 X112.590 Y52.161 F7800.000
G1 F1800
G1 X113.937 Y52.530 E0.08818
G1 X114.792 Y52.787 E0.14455
G1 X115.642 Y53.059 E0.20092
G1 X117.327 Y53.649 E0.31366
G1 X118.990 Y54.299 E0.42640
G1 X119.812 Y54.647 E0.48277
G1 X121.437 Y55.386 E0.59550
G1 X123.035 Y56.184 E0.70824
G1 X123.822 Y56.604 E0.76461
G1 X125.374 Y57.487 E0.87735
G1 X126.138 Y57.949 E0.93372
G1 X127.640 Y58.915 E1.04646
G1 X129.472 Y60.193 E1.18757
G1 X129.476 Y59.093 F7800.000
G1 F1800
G1 X127.649 Y57.851 E1.32705
G1 X126.136 Y56.903 E1.43979
G1 X124.591 Y56.008 E1.55253
G1 X123.015 Y55.169 E1.66526
G1 X121.411 Y54.387 E1.77800
G1 X119.779 Y53.662 E1.89074
G1 X118.123 Y52.995 E2.00348
G1 X117.286 Y52.683 E2.05985
G1 X115.674 Y52.131 E2.16748
G92 E0
G1 X118.307 Y52.104 F7800.000
G1 F1800
G1 X119.511 Y52.583 E0.08183
G1 X121.152 Y53.287 E0.19457
G1 X122.767 Y54.047 E0.30731
G1 X124.355 Y54.863 E0.42004
G1 X125.138 Y55.291 E0.47641
G1 X126.681 Y56.189 E0.58915
G1 X128.193 Y57.140 E0.70189
G1 X129.476 Y58.008 E0.79972
G1 X129.481 Y56.923 F7800.000
G1 F1800
G1 X127.771 Y55.811 E0.92854
G1 X127.010 Y55.345 E0.98491
G1 X125.464 Y54.451 E1.09765
G1 X123.889 Y53.611 E1.21038
G1 X123.091 Y53.211 E1.26676
G1 X121.474 Y52.453 E1.37949
G1 X120.642 Y52.088 E1.43686
G92 E0
G1 X122.787 Y52.068 F7800.000
G1 F1800
G1 X124.781 Y53.068 E0.14085
G1 X126.348 Y53.924 E0.25359
G1 X127.885 Y54.832 E0.36633
G1 X129.484 Y55.851 E0.48602
G1 X129.487 Y54.784 F7800.000
G1 F1800
G1 X128.544 Y54.189 E0.55642
G1 X127.011 Y53.274 E0.66916
G1 X126.233 Y52.836 E0.72553
G1 X124.773 Y52.059 E0.83001
G1 X126.647 Y52.044 F7800.000
G1 F1800
G1 X128.224 Y52.950 E0.94487
G1 X129.487 Y53.729 E1.03854
G1 X129.493 Y52.672 F7800.000
G1 F1800
G1 X128.427 Y52.033 E1.11701
G92 E0
G1 X129.432 Y69.474 F7800.000
G1 F1800
G1 X127.941 Y68.117 E0.12730
G1 X126.570 Y66.973 E0.24003
G1 X125.152 Y65.888 E0.35277
G1 X123.690 Y64.864 E0.46550
G1 X122.943 Y64.376 E0.52188
G1 X121.418 Y63.446 E0.63461
G1 X120.642 Y63.005 E0.69098
G1 X119.062 Y62.174 E0.80372
G1 X117.449 Y61.409 E0.91646
G1 X116.630 Y61.053 E0.97283
G1 X114.972 Y60.392 E1.08556
G1 X113.287 Y59.802 E1.19830
G1 X112.435 Y59.534 E1.25467
G1 X110.716 Y59.051 E1.36741
G1 X108.979 Y58.641 E1.48014
G1 X108.104 Y58.464 E1.53651
G1 X106.344 Y58.165 E1.64925
G1 X105.459 Y58.044 E1.70562
G1 X103.684 Y57.857 E1.81836
G1 X101.902 Y57.745 E1.93109
G1 X100.117 Y57.708 E2.04383
G1 X98.332 Y57.747 E2.15657
G1 X96.550 Y57.861 E2.26930
G1 X95.662 Y57.946 E2.32567
G1 X93.891 Y58.173 E2.43841
G1 X92.131 Y58.474 E2.55115
G1 X90.385 Y58.849 E2.66388
G1 X89.519 Y59.064 E2.72025
G1 X88.657 Y59.298 E2.77662
G1 X86.950 Y59.819 E2.88936
G1 X85.266 Y60.412 E3.00210
G1 X83.608 Y61.076 E3.11483
G1 X81.980 Y61.809 E3.22757
G1 X80.385 Y62.610 E3.34031
G1 X79.600 Y63.035 E3.39668
G1 X78.059 Y63.936 E3.50941
G1 X76.557 Y64.901 E3.62215
G1 X75.097 Y65.929 E3.73489
G1 X73.682 Y67.017 E3.84762
G1 X72.314 Y68.165 E3.96036
G1 X71.649 Y68.760 E4.01673
G1 X70.356 Y69.992 E4.12946
G1 X68.948 Y71.457 E4.25775
G1 X68.959 Y72.791 F7800.000
G1 F1800
G1 X70.194 Y71.435 E4.37357
G1 X71.452 Y70.168 E4.48630
G1 X72.764 Y68.958 E4.59904
G1 X73.440 Y68.374 E4.65541
G1 X74.827 Y67.251 E4.76815
G1 X76.262 Y66.189 E4.88088
G1 X77.742 Y65.190 E4.99362
G1 X78.498 Y64.714 E5.04999
G1 X80.039 Y63.813 E5.16272
G1 X80.824 Y63.388 E5.21910
G1 X82.420 Y62.588 E5.33183
G1 X84.049 Y61.858 E5.44457
G1 X85.709 Y61.199 E5.55730
G1 X87.395 Y60.613 E5.67004
G1 X88.247 Y60.347 E5.72641
G1 X89.968 Y59.871 E5.83915
G1 X91.707 Y59.469 E5.95188
G1 X92.583 Y59.297 E6.00825
G1 X94.345 Y59.009 E6.12099
G1 X96.118 Y58.797 E6.23373
G1 X97.007 Y58.720 E6.29010
G1 X98.790 Y58.623 E6.40283
G1 X100.575 Y58.603 E6.51557
G1 X102.360 Y58.660 E6.62831
G1 X104.140 Y58.794 E6.74104
G1 X105.913 Y59.005 E6.85378
G1 X106.796 Y59.139 E6.91015
G1 X108.551 Y59.464 E7.02289
