; generated by Slic3r 1.3.0 on 2023-03-15 at 19:40:32

; external perimeters extrusion width = 1.10mm (14.89mm^3/s)
; perimeters extrusion width = 1.40mm (38.78mm^3/s)
; infill extrusion width = 1.25mm (45.71mm^3/s)
; solid infill extrusion width = 1.40mm (12.93mm^3/s)
; top infill extrusion width = 1.40mm (9.70mm^3/s)

M107
M104 S205 ; set temperature
G28 ; home all axes
G1 Z5 F5000 ; lift nozzle

; Filament gcode

M109 S205 ; set temperature and wait for it to be reached
G21 ; set units to millimeters
G90 ; use absolute coordinates
M82 ; use absolute distances for extrusion
G92 E0
G1 Z0.500 F7800.000
G1 X145.197 Y135.700 F7800.000
G1 F1800
G1 X145.852 Y133.097 E0.16951
G1 X148.607 Y133.790 E0.34890
G1 X148.607 Y148.607 E1.28455
G1 X128.607 Y148.607 E2.54751
G1 X130.121 Y146.762 E2.69822
G1 X131.245 Y144.658 E2.84889
G1 X131.938 Y142.375 E2.99956
G1 X132.172 Y140.000 E3.15023
G1 X131.938 Y137.625 E3.30091
G1 X131.245 Y135.342 E3.45158
G1 X130.121 Y133.238 E3.60225
G1 X129.136 Y132.037 E3.70029
G1 X129.343 Y131.710 E3.72475
G1 X145.052 Y135.663 E4.74760
G1 X144.549 Y134.617 F7800.000
G1 F1800
G1 X145.204 Y132.013 E4.91712
G1 X149.500 Y133.094 E5.19682
G1 X149.500 Y149.500 E6.23277
G1 X126.111 Y149.500 E7.70966
G1 X127.973 Y147.973 E7.86170
G1 X129.375 Y146.264 E8.00126
G1 X130.417 Y144.315 E8.14083
G1 X131.058 Y142.200 E8.28040
G1 X131.275 Y140.000 E8.41997
G1 X131.058 Y137.800 E8.55954
G1 X130.417 Y135.685 E8.69911
G1 X129.375 Y133.736 E8.83868
G1 X127.973 Y132.027 E8.97825
G1 X126.264 Y130.625 E9.11781
G1 X125.821 Y130.388 E9.14953
G1 X125.992 Y129.946 E9.17945
G1 X144.404 Y134.580 E10.37834
G1 X145.521 Y134.853 F7800.000
G92 E0
G1 X144.758 Y131.738 F7800.000
G1 F1800
G1 X112.954 Y123.734 E1.33900
G92 E0
G1 X112.144 Y122.853 F7800.000
G1 X117.911 Y128.428 F7800.000
G1 X120.026 Y128.588 F7800.000
G1 F1800
G1 X120.875 Y128.736 E0.06311
G1 F1800
G1 X121.724 Y128.884 E0.12059
G1 F1800
G1 X122.240 Y128.978 E0.15323
G1 X122.919 Y129.166 E0.19706
G1 F1800
G1 X124.276 Y129.543 E0.29144
G1 F1800
G1 X124.730 Y129.713 E0.32598
G1 F1800
G1 X125.440 Y129.987 E0.38494
G92 E0
G1 X127.234 Y130.775 F7800.000
G1 X124.564 Y115.223 F7800.000
G1 X121.928 Y114.896 F7800.000
G1 F1800
G1 X121.285 Y114.817 E0.05002
G1 F1800
G1 X120.642 Y114.737 E0.09558
G1 F1800
G1 X120.000 Y114.657 E0.13669
G1 F1800
G1 X119.357 Y114.578 E0.17334
G92 E0
G1 X118.357 Y113.661 F7800.000
G1 X112.799 Y120.249 F7800.000
G1 X112.514 Y119.773 F7800.000
G1 F1800
G1 X111.859 Y122.376 E0.16951
G1 X108.393 Y121.503 E0.39524
G1 X108.393 Y115.683 E0.76277
G1 X148.607 Y125.803 E3.38132
G1 X148.607 Y128.855 E3.57405
G1 X112.660 Y119.809 E5.91474
G92 E0
G1 X112.799 Y120.249 F7800.000
G1 X113.256 Y118.433 F7800.000
G1 X147.127 Y126.957 F7800.000
G1 X147.561 Y126.619 F7800.000
G1 X148.448 Y125.358 F7800.000
G1 X148.943 Y121.358 F7800.000
G1 X147.840 Y119.885 F7800.000
G1 X133.924 Y116.383 F7800.000
G1 X129.658 Y115.616 F7800.000
G1 F1800
G1 X134.019 Y115.616 E0.27539
G1 X148.607 Y119.287 E1.22528
G1 X148.607 Y120.869 E1.32517
G1 X129.600 Y116.085 E2.56282
G1 X129.640 Y115.765 E2.58324
G92 E0
G1 X133.924 Y116.383 F7800.000
G1 X147.840 Y119.885 F7800.000
G1 X148.943 Y121.358 F7800.000
G1 X148.448 Y125.358 F7800.000
G1 X147.561 Y126.619 F7800.000
G1 X147.127 Y126.957 F7800.000
G1 X113.256 Y118.433 F7800.000
G1 X112.799 Y120.249 F7800.000
G1 X113.162 Y120.856 F7800.000
G1 F1800
G1 X112.507 Y123.459 E0.16951
G1 X107.500 Y122.199 E0.49555
G1 X107.500 Y114.538 E0.97933
G1 X147.549 Y124.617 E3.58712
G1 X148.281 Y121.707 E3.77656
G1 X122.395 Y115.193 E5.46216
G1 X122.453 Y114.723 E5.49205
G1 X134.130 Y114.723 E6.22941
G1 X149.500 Y118.591 E7.23022
G1 X149.500 Y130.001 E7.95069
G1 X113.308 Y120.893 E10.30733
G1 X112.173 Y120.713 F7800.000
G92 E0
G1 X112.799 Y120.249 F7800.000
G1 X113.823 Y110.128 F7800.000
G1 X113.347 Y110.413 F7800.000
G1 F1800
G1 X117.964 Y111.575 E0.30069
G1 X117.964 Y113.157 E0.40058
G1 X108.393 Y110.749 E1.02384
G1 X108.393 Y69.607 E3.62172
G1 X75.607 Y69.607 E5.69197
G1 X75.607 Y132.393 E9.65659
G1 X108.393 Y132.393 E11.72684
G1 X108.393 Y126.438 E12.10285
G1 X115.626 Y128.258 E12.57383
G1 X115.636 Y128.666 E12.59955
G1 X115.342 Y128.755 E12.61893
G1 X113.238 Y129.879 E12.76960
G1 X111.393 Y131.393 E12.92027
G1 X109.879 Y133.238 E13.07095
G1 X108.755 Y135.342 E13.22162
G1 X108.062 Y137.625 E13.37229
G1 X107.828 Y140.000 E13.52297
G1 X108.062 Y142.375 E13.67364
G1 X108.755 Y144.658 E13.82431
G1 X109.879 Y146.762 E13.97498
G1 X111.393 Y148.607 E14.12569
G1 X67.465 Y148.607 E16.89956
G1 X67.465 Y139.437 E17.47859
G1 X51.393 Y139.437 E18.49351
G1 X51.393 Y123.393 E19.50666
G1 X68.393 Y123.393 E20.58014
G1 X68.393 Y60.607 E24.54476
G1 X51.393 Y60.607 E25.61823
G1 X51.393 Y51.393 E26.20009
G1 X129.964 Y51.393 E31.16154
G1 X129.964 Y69.616 E32.31224
G1 X148.607 Y69.616 E33.48946
G1 X148.607 Y114.352 E36.31437
G1 X140.750 Y112.375 E36.82601
G1 X140.750 Y92.830 E38.06016
G1 X117.964 Y92.830 E39.49895
G1 X117.964 Y106.641 E40.37102
G1 X114.514 Y105.773 E40.59567
G1 X113.383 Y110.268 E40.88837
G1 X114.430 Y109.765 F7800.000
G1 F1800
G1 X118.857 Y110.879 E41.17663
G1 X118.857 Y114.302 E41.39278
G1 X107.500 Y111.444 E42.13229
G1 X107.500 Y70.500 E44.71775
G1 X76.500 Y70.500 E46.67526
G1 X76.500 Y131.500 E50.52714
G1 X107.500 Y131.500 E52.48465
G1 X107.500 Y125.293 E52.87660
G1 X119.545 Y128.324 E53.66088
G1 X119.511 Y128.773 E53.68933
G1 X117.800 Y128.942 E53.79789
G1 X115.685 Y129.583 E53.93746
G1 X113.736 Y130.625 E54.07703
G1 X112.027 Y132.027 E54.21660
G1 X110.625 Y133.736 E54.35617
G1 X109.583 Y135.685 E54.49573
G1 X108.942 Y137.800 E54.63530
G1 X108.725 Y140.000 E54.77487
G1 X108.942 Y142.200 E54.91444
G1 X109.583 Y144.315 E55.05401
G1 X110.625 Y146.264 E55.19358
G1 X112.027 Y147.973 E55.33315
G1 X113.889 Y149.500 E55.48518
G1 X66.573 Y149.500 E58.47298
G1 X66.573 Y140.330 E59.05201
G1 X50.500 Y140.330 E60.06692
G1 X50.500 Y122.500 E61.19282
G1 X67.500 Y122.500 E62.26629
G1 X67.500 Y61.500 E66.11817
G1 X50.500 Y61.500 E67.19165
G1 X50.500 Y50.500 E67.88625
G1 X130.857 Y50.500 E72.96044
G1 X130.857 Y68.723 E74.11114
G1 X149.500 Y68.723 E75.28835
G1 X149.500 Y115.497 E78.24195
G1 X139.857 Y113.071 E78.86984
G1 X139.857 Y93.723 E80.09156
G1 X118.857 Y93.723 E81.41762
G1 X118.857 Y107.786 E82.30563
G1 X115.162 Y106.856 E82.54622
G1 X114.467 Y109.620 E82.72618
G1 X113.909 Y110.619 F7800.000
G92 E0
G1 X108.000 Y115.179 F7800.000
G1 X109.285 Y116.828 F7800.000
G1 F1800
G1 X147.715 Y126.499 E2.50511
G1 X147.715 Y127.710 E2.58167
G1 X111.867 Y118.689 E4.91852
G1 X111.211 Y121.292 E5.08822
G1 X109.285 Y120.808 E5.21378
G1 X109.285 Y116.978 E5.45586
G92 E0
G1 X110.678 Y118.615 F7800.000
G1 X138.573 Y140.669 F7800.000
G1 X138.480 Y140.538 F7800.000
G1 F1800
G1 X142.278 Y141.494 E0.25104
G1 X142.181 Y142.277 E0.30162
G1 X138.309 Y142.277 E0.54983
G1 X138.466 Y140.687 E0.65222
G1 X137.623 Y140.000 F7800.000
G1 F1800
G1 X137.561 Y139.372 E0.69268
G1 X143.183 Y140.787 E1.06436
G1 X143.183 Y143.183 E1.21797
G1 X137.309 Y143.183 E1.59455
G1 X137.608 Y140.149 E1.78997
G1 X136.712 Y140.000 F7800.000
G1 F1800
G1 X136.532 Y138.179 E1.90731
G1 X144.089 Y140.080 E2.40689
G1 X144.089 Y144.089 E2.66391
G1 X136.139 Y144.089 E3.17359
G1 X136.391 Y143.260 E3.22912
G1 X136.697 Y140.149 E3.42954
G1 X135.801 Y140.000 F7800.000
G1 F1800
G1 X135.504 Y136.985 E3.62376
G1 X144.996 Y139.374 E4.25124
G1 X144.996 Y144.996 E4.61166
G1 X134.917 Y144.996 E5.25780
G1 X135.498 Y143.083 E5.38596
G1 X135.786 Y140.149 E5.57493
G1 X134.890 Y140.000 F7800.000
G1 F1800
G1 X134.604 Y137.095 E5.76207
G1 X134.187 Y135.719 E5.85426
G1 X145.902 Y138.667 E6.62874
G1 X145.902 Y145.902 E7.09257
G1 X133.695 Y145.902 E7.87516
G1 X134.604 Y142.905 E8.07595
G1 X134.876 Y140.149 E8.25347
G1 X133.980 Y140.000 F7800.000
G1 F1800
G1 X133.711 Y137.273 E8.42917
G1 X132.855 Y134.449 E8.61834
G1 X146.808 Y137.961 E9.54082
G1 X146.808 Y146.808 E10.10806
G1 X132.136 Y146.808 E11.04872
G1 X132.916 Y145.350 E11.15474
G1 X133.711 Y142.727 E11.33044
G1 X133.965 Y140.149 E11.49652
G1 X133.069 Y140.000 F7800.000
G1 F1800
G1 X132.818 Y137.450 E11.66077
G1 X132.074 Y134.999 E11.82502
G1 X131.036 Y133.057 E11.96618
G1 X145.845 Y136.784 E12.94519
G1 X146.500 Y134.180 E13.11730
G1 X147.715 Y134.486 E13.19759
G1 X147.715 Y147.715 E14.04570
G1 X130.494 Y147.715 E15.14974
G1 X130.866 Y147.261 E15.18739
G1 X132.074 Y145.001 E15.35164
G1 X132.818 Y142.550 E15.51589
G1 X133.054 Y140.149 E15.67052
G92 E0
G1 X131.777 Y140.000 F7800.000
G1 X74.970 Y139.830 F7800.000
G1 X74.660 Y139.587 F7800.000
G1 F1800
G1 X100.558 Y139.587 E1.96242
G1 X100.738 Y141.413 E2.10141
G1 X74.660 Y141.413 E4.07745
G1 X74.660 Y139.737 E4.20440
G1 X73.760 Y138.687 F7800.000
G1 F1800
G1 X101.633 Y138.687 E6.31647
G1 X101.503 Y140.000 E6.41644
G1 X101.731 Y142.313 E6.59255
G1 X73.760 Y142.313 E8.71208
G1 X73.760 Y138.837 E8.97547
G1 X72.859 Y137.787 F7800.000
G1 F1800
G1 X102.626 Y137.787 E11.23102
G1 X102.408 Y140.000 E11.39954
G1 X102.724 Y143.213 E11.64420
G1 X72.859 Y143.213 E13.90721
G1 X72.859 Y137.937 E14.30704
G1 X71.959 Y136.886 F7800.000
G1 F1800
G1 X103.619 Y136.886 E16.70607
G1 X103.313 Y140.000 E16.94314
G1 X103.633 Y143.256 E17.19102
G1 X103.893 Y144.114 E17.25896
G1 X71.959 Y144.114 E19.67877
G1 X71.959 Y137.036 E20.21503
G92 E0
G1 X68.413 Y132.243 F7800.000
G1 F1800
G1 X58.587 Y132.243 E0.74452
G1 X58.587 Y130.587 E0.86997
G1 X68.413 Y130.587 E1.61448
G1 X68.413 Y132.093 E1.72857
G1 X69.313 Y133.143 F7800.000
G1 F1800
G1 X57.687 Y133.143 E2.60952
G1 X57.687 Y129.687 E2.87141
G1 X69.313 Y129.687 E3.75236
G1 X69.313 Y132.993 E4.00288
G1 X70.213 Y134.043 F7800.000
G1 F1800
G1 X56.787 Y134.043 E5.02027
G1 X56.787 Y128.787 E5.41859
G1 X70.213 Y128.787 E6.43598
G1 X70.213 Y133.893 E6.82294
G1 X71.114 Y134.944 F7800.000
G1 F1800
G1 X55.886 Y134.944 E7.97676
G1 X55.886 Y127.886 E8.51152
G1 X71.114 Y127.886 E9.66534
G1 X71.114 Y134.794 E10.18874
G1 X71.059 Y135.844 F7800.000
G1 F1800
G1 X54.986 Y135.844 E11.40663
G1 X54.986 Y126.986 E12.07783
G1 X72.014 Y126.986 E13.36809
G1 X72.014 Y135.986 E14.05006
G1 X104.804 Y135.986 E16.53472
G1 X104.520 Y136.921 E16.60874
G1 X104.217 Y140.000 E16.84319
G1 X104.520 Y143.079 E17.07763
G1 X105.107 Y145.014 E17.23083
G1 X71.059 Y145.014 E19.81084
G1 X71.059 Y135.994 E20.49432
G92 E0
G1 X67.577 Y131.423 F7800.000
G1 X68.000 Y131.000 F7800.000
G1 X72.000 Y123.000 F7800.000
G1 X72.000 Y70.000 F7800.000
G1 X76.000 Y62.000 F7800.000
G1 X77.487 Y60.500 F7800.000
G1 X108.000 Y60.500 F7800.000
G1 X118.147 Y63.210 F7800.000
G1 X119.192 Y70.000 F7800.000
G1 X121.598 Y79.625 F7800.000
G1 X118.357 Y82.866 F7800.000
G1 X119.188 Y82.035 F7800.000
G1 F1800
G1 X119.188 Y80.411 E0.12300
G1 X137.812 Y80.411 E1.53416
G1 X137.812 Y82.035 E1.65716
G1 X119.338 Y82.035 E3.05696
G1 X118.288 Y82.935 F7800.000
G1 F1800
G1 X118.288 Y61.288 E4.69723
G1 X120.069 Y61.288 E4.83218
G1 X120.069 Y79.511 E6.21301
G1 X138.712 Y79.511 E7.62567
G1 X138.712 Y82.935 E7.88511
G1 X118.438 Y82.935 E9.42135
G1 X117.388 Y83.835 F7800.000
G1 F1800
G1 X117.388 Y60.388 E11.19805
G1 X120.969 Y60.388 E11.46943
G1 X120.969 Y78.611 E12.85027
G1 X139.612 Y78.611 E14.26293
G1 X139.612 Y83.835 E14.65880
G1 X117.538 Y83.835 E16.33147
G1 X116.488 Y84.735 F7800.000
G1 F1800
G1 X116.488 Y61.512 E18.09118
G1 X76.488 Y61.512 E21.12217
G1 X76.488 Y59.488 E21.27560
G1 X121.870 Y59.488 E24.71440
G1 X121.869 Y77.711 E26.09524
G1 X140.512 Y77.711 E27.50790
G1 X140.512 Y84.735 E28.04020
G1 X116.638 Y84.735 E29.84931
G1 X115.587 Y85.636 F7800.000
G1 F1800
G1 X115.587 Y62.413 E31.60902
G1 X75.587 Y62.413 E34.64001
G1 X75.587 Y58.587 E34.92988
G1 X122.770 Y58.587 E38.50512
G1 X122.770 Y76.810 E39.88595
G1 X141.413 Y76.810 E41.29861
G1 X141.413 Y85.636 E41.96736
G1 X115.737 Y85.636 E43.91290
G1 X114.687 Y86.536 F7800.000
G1 F1800
G1 X114.687 Y63.313 E45.67261
G1 X74.687 Y63.313 E48.70360
G1 X74.687 Y57.687 E49.12990
G1 X123.670 Y57.687 E52.84157
G1 X123.670 Y75.910 E54.22241
G1 X142.313 Y75.910 E55.63507
G1 X142.313 Y86.536 E56.44025
G1 X114.837 Y86.536 E58.52223
G1 X113.787 Y87.436 F7800.000
G1 F1800
G1 X113.787 Y64.213 E60.28194
G1 X73.787 Y64.213 E63.31293
G1 X73.787 Y56.787 E63.87567
G1 X124.570 Y56.787 E67.72378
G1 X124.570 Y75.010 E69.10461
G1 X143.213 Y75.010 E70.51728
G1 X143.213 Y87.436 E71.45889
G1 X113.937 Y87.436 E73.67731
G1 X112.886 Y88.336 F7800.000
G1 F1800
G1 X112.886 Y65.114 E75.43702
G1 X72.886 Y65.114 E78.46800
G1 X72.886 Y55.886 E79.16718
G1 X125.471 Y55.886 E83.15172
G1 X125.471 Y74.109 E84.53256
G1 X144.114 Y74.109 E85.94522
G1 X144.114 Y88.336 E87.02327
G1 X113.036 Y88.336 E89.37813
G1 X114.371 Y89.237 F7800.000
G1 F1800
G1 X114.371 Y102.031 E90.34760
G1 X111.986 Y101.431 E90.53393
G1 X111.986 Y66.014 E93.21764
G1 X71.986 Y66.014 E96.24862
G1 X71.986 Y57.014 E96.93059
G1 X54.986 Y57.014 E98.21876
G1 X54.986 Y54.986 E98.37240
G1 X126.371 Y54.986 E103.78155
G1 X126.371 Y73.209 E105.16239
G1 X145.014 Y73.209 E106.57505
G1 X145.014 Y89.237 E107.78954
G1 X114.521 Y89.237 E110.10013
G1 X115.271 Y90.137 F7800.000
G1 F1800
G1 X115.271 Y103.186 E111.08889
G1 X112.560 Y102.503 E111.30075
G1 X111.869 Y105.249 E111.51530
G1 X111.086 Y105.152 E111.57508
G1 X111.086 Y66.914 E114.47258
G1 X72.914 Y66.914 E117.36504
G1 X72.914 Y135.086 E122.53074
G1 X106.018 Y135.086 E125.03917
G1 X105.408 Y137.097 E125.19844
G1 X105.122 Y140.000 E125.41945
G1 X105.408 Y142.903 E125.64046
G1 X106.321 Y145.914 E125.87892
G1 X70.159 Y145.914 E128.61913
G1 X70.159 Y136.744 E129.31397
G1 X54.086 Y136.744 E130.53187
G1 X54.086 Y126.086 E131.33950
G1 X71.086 Y126.086 E132.62767
G1 X71.086 Y57.914 E137.79337
G1 X54.086 Y57.914 E139.08154
G1 X54.086 Y54.086 E139.37161
G1 X127.271 Y54.086 E144.91720
G1 X127.271 Y72.309 E146.29804
G1 X145.914 Y72.309 E147.71070
G1 X145.914 Y110.897 E150.63472
G1 X143.443 Y110.275 E150.82780
G1 X143.443 Y90.137 E152.35377
G1 X115.421 Y90.137 E154.47712
G1 X116.171 Y91.037 F7800.000
G1 F1800
G1 X116.171 Y104.341 E155.48518
G1 X113.213 Y103.596 E155.71632
G1 X111.671 Y109.725 E156.19518
G1 X110.186 Y109.351 E156.31124
G1 X110.186 Y67.814 E159.45866
G1 X73.814 Y67.814 E162.21468
G1 X73.814 Y134.186 E167.24394
G1 X107.232 Y134.186 E169.77613
G1 X106.295 Y137.274 E170.02067
G1 X106.026 Y140.000 E170.22824
G1 X106.295 Y142.726 E170.43581
G1 X107.090 Y145.347 E170.64338
G1 X107.874 Y146.814 E170.76942
G1 X69.258 Y146.814 E173.69553
G1 X69.258 Y137.645 E174.39037
G1 X53.186 Y137.645 E175.60826
G1 X53.186 Y125.186 E176.55233
G1 X70.186 Y125.186 E177.84050
G1 X70.186 Y58.814 E182.86976
G1 X53.186 Y58.814 E184.15793
G1 X53.186 Y53.186 E184.58444
G1 X128.171 Y53.186 E190.26646
G1 X128.171 Y71.409 E191.64730
G1 X146.814 Y71.409 E193.05996
G1 X146.814 Y112.052 E196.13971
G1 X142.543 Y110.977 E196.47348
G1 X142.543 Y91.037 E197.98441
G1 X116.321 Y91.037 E199.97132
G1 X117.072 Y91.938 F7800.000
G1 F1800
G1 X117.072 Y105.496 E200.99868
G1 X113.867 Y104.689 E201.24912
G1 X112.324 Y110.817 E201.72798
G1 X109.285 Y110.053 E201.96543
G1 X109.285 Y68.715 E205.09781
G1 X74.715 Y68.715 E207.71739
G1 X74.715 Y133.285 E212.61022
G1 X108.842 Y133.285 E215.19619
G1 X107.926 Y134.999 E215.34340
G1 X107.182 Y137.450 E215.53753
G1 X106.931 Y140.000 E215.73166
G1 X107.182 Y142.550 E215.92579
G1 X107.926 Y145.001 E216.11993
G1 X109.134 Y147.261 E216.31406
G1 X109.506 Y147.715 E216.35855
G1 X68.358 Y147.715 E219.47654
G1 X68.358 Y138.545 E220.17138
G1 X52.285 Y138.545 E221.38927
G1 X52.285 Y124.285 E222.46977
G1 X69.285 Y124.285 E223.75794
G1 X69.285 Y59.715 E228.65077
G1 X52.285 Y59.715 E229.93894
G1 X52.285 Y52.285 E230.50189
G1 X129.072 Y52.285 E236.32035
G1 X129.072 Y70.508 E237.70118
G1 X147.715 Y70.508 E239.11384
G1 X147.715 Y113.207 E242.34932
G1 X141.642 Y111.679 E242.82378
G1 X141.642 Y91.938 E244.31968
G1 X117.222 Y91.938 E246.17015
G92 E0
G1 X118.357 Y93.223 F7800.000
G1 X118.357 Y82.866 F7800.000
G1 X121.598 Y79.625 F7800.000
G1 X119.192 Y70.000 F7800.000
G1 X118.147 Y63.210 F7800.000
G1 X108.000 Y60.500 F7800.000
G1 X77.487 Y60.500 F7800.000
G1 X76.000 Y62.000 F7800.000
